!!!!SEGMENT: pl-cz--iii-753--001-006_zebrowski-marcin-jozef--vesperae-in-d-credidi.krn
!!!cenid: 17xx:2377
!!!COM: Żebrowski, Marcin Józef
!!!COM-rismid: pe30020322
!!!CDT: 1702-1770/06/29
!!!CNT: Polish
!!!OPR: Vesperae in D
!!!OTL: Credidi
!!!OMV: 006
!!!AGN:
!!!SMS-siglum: PL-CZ
!!!SMS-shelfmark: III-753
!!!SMS-shelfwork: 001-006 M
!!!SMS-variant:
!!!SMS-altvar:
!!!NIFC-rismid: 300033505
!!!URL-scan: https://repozytorium.nifc.pl/islandora/object/pl-cz%3A25492/datastream/PDF/view
!!!ONB-nifc: UWAGA: części Nieszporów: 1. Dixit Dominus, 2. Confitebor, 3. Beatus vir, 4. Laudate pueri, 5. Laudate Dominum, 6. Credidi, 7. In convertendo, 8. Domine probasti me, 9. Laetatus sum, 10. Nisi Dominus, 11. Lauda Jerusalem, 12. Magnificat, 13. Quia respexit, 14. Deposuit potentes, 15. Gloria patri
!!!AIN: 1 alto 1 bass 2 clrno 1 fagot 1 organ 1 soprn 1 tenor 2 violn
!!!key: B-
**kern	**fba	**dynam	**kern	**dynam	**kern	**dynam	**kern	**dynam	**kern	**kern	**kern	**kern	**text	**kern	**kern
*group4	*	*	*group4	*	*group3	*	*group3	*	*group2	*group2	*group2	*group2	*	*group1	*group1
*part10	*	*part10	*part9	*part9	*part8	*part8	*part7	*part7	*part6	*part5	*part4	*part3	*part3	*part2	*part1
*staff10	*	*	*staff9	*	*staff8	*	*staff7	*	*staff6	*staff5	*staff4	*staff3	*staff3	*staff2	*staff1
*I"Organo.	*	*	*I"Baſsone.	*	*I"Violino Secondo.	*	*I"Violino Primo.	*	*I"Baſso.	*I"Tenore.	*I"Alto.	*I"Canto.	*	*I"Clarino Secondo ex D.	*I"Clarino Primo ex D
*I'org	*	*	*I'fag	*	*I'vl 2	*	*I'vl 1	*	*I'B	*I'T	*I'A	*I'S	*	*I'clno 2	*I'clno 1
*Iorgan	*	*	*Ifagot	*	*Ivioln	*	*Ivioln	*	*Ibass	*Itenor	*Ialto	*Isoprn	*	*Iclrno	*Iclrno
*ICklav	*	*	*ICww	*	*ICstr	*	*ICstr	*	*ICvox	*ICvox	*ICvox	*ICvox	*	*ICbras	*ICbras
*IGcont	*	*	*IGcont	*	*	*	*	*	*IGcoro	*IGcoro	*IGcoro	*IGcoro	*	*	*
*clefF4	*	*	*clefF4	*	*clefG2	*	*clefG2	*	*clefG2	*clefG2	*clefG2	*clefC1	*	*clefG2	*clefG2
*k[b-e-]	*	*	*k[b-e-]	*	*k[b-e-]	*	*k[b-e-]	*	*k[b-e-]	*k[b-e-]	*k[b-e-]	*k[b-e-]	*	*k[b-e-]	*k[b-e-]
*B-:	*	*	*B-:	*	*B-:	*	*B-:	*	*B-:	*B-:	*B-:	*B-:	*	*B-:	*B-:
*M2/4	*	*	*M2/4	*	*M2/4	*	*M2/4	*	*M2/4	*M2/4	*M2/4	*M2/4	*	*M2/4	*M2/4
=1	=1	=1	=1	=1	=1	=1	=1	=1	=1	=1	=1	=1	=1	=1	=1
!LO:TX:rj:b:t=Allo.	!	!	!LO:TX:t=P:problem:mixed beam	!	!	!	!	!	!	!	!	!LO:TX:i:t=Allo e Solo.	!	!	!
!LO:TX:b:t=Solo.	!	!	!LO:TX:a:i:t=Allo Solo.	!	!LO:TX:i:rj:b:t=Allo.	!	!LO:TX:rj:b:t=Allo.	!	!LO:TX:i:t=Credidi Tacet.	!LO:TX:i:t=Credidi\ntacet.	!LO:TX:i:t=Credidi tacet.	!LO:TX:b:t=14.	!	!	!
!LO:TX:t=P:problem:mixed beam	!	!	!	!	!	!	!	!	!	!	!	!	!	!	!
8B-\L	.	.	8B-\L	.	(32b-\LLL	.	(32b-\LLL	.	2ryy	2ryy	2ryy	0r	.	2ryy	2ryy
.	.	.	.	.	32cc\	.	32cc\	.	.	.	.	.	.	.	.
.	.	.	.	.	32dd\	.	32dd\	.	.	.	.	.	.	.	.
.	.	.	.	.	32cc\JJ)	.	32cc\JJ)	.	.	.	.	.	.	.	.
8BB-/	.	.	8BB-/	.	8.b-\J	.	8.b-\J	.	.	.	.	.	.	.	.
8AA/	4 2	.	8AA/	.	.	.	.	.	.	.	.	.	.	.	.
.	.	.	.	.	16f/LL	.	16f/LL	.	.	.	.	.	.	.	.
8A\J	.	.	8A\J	.	16g/	.	16g/	.	.	.	.	.	.	.	.
.	.	.	.	.	16a/JJ	.	16a/JJ	.	.	.	.	.	.	.	.
=2	=2	=2	=2	=2	=2	=2	=2	=2	=2	=2	=2	=2	=2	=2	=2
8G\L	5	.	8G\L	.	(32b-\LLL	.	(32b-\LLL	.	2ryy	2ryy	2ryy	.	.	2ryy	2ryy
.	.	.	.	.	32cc\	.	32cc\	.	.	.	.	.	.	.	.
.	.	.	.	.	32dd\	.	32dd\	.	.	.	.	.	.	.	.
.	.	.	.	.	32cc\JJJ)	.	32cc\JJJ)	.	.	.	.	.	.	.	.
16F\L	.	.	16F\L	.	4b-\	.	4b-/	.	.	.	.	.	.	.	.
16E-\JJ	.	.	16E-\JJ	.	.	.	.	.	.	.	.	.	.	.	.
8D\L	6	.	8D\L	.	.	.	.	.	.	.	.	.	.	.	.
8D\J	.	.	8D\J	.	8bn\	.	8bn/	.	.	.	.	.	.	.	.
=3	=3	=3	=3	=3	=3	=3	=3	=3	=3	=3	=3	=3	=3	=3	=3
!LO:TX:t=P:problem:mixed beam	!	!	!LO:TX:t=P:problem:mixed beam	!	!	!	!	!	!	!	!	!	!	!	!
8E-\L	6	.	8E-\L	.	(32cc\KLL	.	(32cc\KLL	.	2ryy	2ryy	2ryy	.	.	2ryy	2ryy
.	.	.	.	.	16.ee-\JJ)	.	16.ee-\JJ)	.	.	.	.	.	.	.	.
8E-\	.	.	8E-\	.	(32dd\KLL	.	(32dd\KLL	.	.	.	.	.	.	.	.
.	.	.	.	.	16.cc\JJ)	.	16.cc\JJ)	.	.	.	.	.	.	.	.
8AA/	7	.	8AA/	.	(32gg\KLL	.	(32gg\KLL	.	.	.	.	.	.	.	.
.	.	.	.	.	16.ee-\JJ)	.	16.ee-\JJ)	.	.	.	.	.	.	.	.
8AA/J	6	.	8AA/J	.	(32dd\KLL	.	(32dd\KLL	.	.	.	.	.	.	.	.
.	.	.	.	.	16.cc\JJ)	.	16.cc\JJ)	.	.	.	.	.	.	.	.
=4	=4	=4	=4	=4	=4	=4	=4	=4	=4	=4	=4	=4	=4	=4	=4
8BB-/L	.	.	8BB-/L	.	(32dd\LLL	.	(32dd\LLL	.	2ryy	2ryy	2ryy	.	.	2ryy	2ryy
.	.	.	.	.	32cc\JJ	.	32cc\JJ	.	.	.	.	.	.	.	.
.	.	.	.	.	8.b-\J)	.	8.b-\J)	.	.	.	.	.	.	.	.
8BB-/	.	.	8BB-/	.	.	.	.	.	.	.	.	.	.	.	.
8D/	6	.	8D/	.	[4ff\	.	[4ff\	.	.	.	.	.	.	.	.
8D/J	.	.	8D/J	.	.	.	.	.	.	.	.	.	.	.	.
=5	=5	=5	=5	=5	=5	=5	=5	=5	=5	=5	=5	=5	=5	=5	=5
4.E-\	9	.	4.E-\	.	8ff\L]	.	8ff\L]	.	2ryy	2ryy	2ryy	0r	.	2ryy	2ryy
.	.	.	.	.	(32gg\KL	.	(32gg\KL	.	.	.	.	.	.	.	.
.	.	.	.	.	16.ff\JJ)	.	16.ff\JJ)	.	.	.	.	.	.	.	.
.	8	.	.	.	(32ee-\KLL	.	(32ee-\KLL	.	.	.	.	.	.	.	.
.	.	.	.	.	16.dd\JJ)	.	16.dd\JJ)	.	.	.	.	.	.	.	.
8En\	6 5	.	8En\	.	(32cc\KLL	.	(32cc\KLL	.	.	.	.	.	.	.	.
.	.	.	.	.	16.b-\JJ)	.	16.b-\JJ)	.	.	.	.	.	.	.	.
=6	=6	=6	=6	=6	=6	=6	=6	=6	=6	=6	=6	=6	=6	=6	=6
8F\L	.	.	8F\L	.	(16a/LL	.	(16a/LL	.	2ryy	2ryy	2ryy	.	.	2ryy	2ryy
.	.	.	.	.	16g/J	.	16g/J	.	.	.	.	.	.	.	.
8A\	.	.	8A\	.	8f/J)	.	8f/J)	.	.	.	.	.	.	.	.
8B-\	.	.	8B-\	.	8r	.	8r	.	.	.	.	.	.	.	.
8d\J	.	.	8d\J	.	8ff\	.	8ff\	.	.	.	.	.	.	.	.
=7	=7	=7	=7	=7	=7	=7	=7	=7	=7	=7	=7	=7	=7	=7	=7
.	.	.	.	.	8qqff/	.	8qqff/	.	.	.	.	.	.	.	.
8r	.	.	8r	.	4.gg\	.	4.gg\	.	2ryy	2ryy	2ryy	.	.	2ryy	2ryy
16e-\LL	.	.	16e-\LL	.	.	.	.	.	.	.	.	.	.	.	.
16d\JJ	.	.	16d\JJ	.	.	.	.	.	.	.	.	.	.	.	.
8e-\L	.	.	8e-\L	.	.	.	.	.	.	.	.	.	.	.	.
8c\J	6	.	8c\J	.	8a/	.	8a/	.	.	.	.	.	.	.	.
=8	=8	=8	=8	=8	=8	=8	=8	=8	=8	=8	=8	=8	=8	=8	=8
.	.	.	.	.	8qqa/	.	8qqa/	.	.	.	.	.	.	.	.
8r	.	.	8r	.	4.b-/	.	4.b-/	.	2ryy	2ryy	2ryy	.	.	2ryy	2ryy
16d\LL	6	.	16d\LL	.	.	.	.	.	.	.	.	.	.	.	.
16c\JJ	.	.	16c\JJ	.	.	.	.	.	.	.	.	.	.	.	.
8d\L	.	.	8d\L	.	.	.	.	.	.	.	.	.	.	.	.
8D\J	.	.	8D\J	.	8f/	.	8f/	.	.	.	.	.	.	.	.
!LO:LB:g=original	!	!	!	!	!	!	!	!	!	!	!	!	!	!	!
=9	=9	=9	=9	=9	=9	=9	=9	=9	=9	=9	=9	=9	=9	=9	=9
8E-\L	.	.	8E-\L	.	(32g/KLL	.	(32g/KLL	.	2ryy	2ryy	2ryy	0r	.	2ryy	2ryy
.	.	.	.	.	16.b-/JJ)	.	16.b-/JJ)	.	.	.	.	.	.	.	.
8C\	6	.	8C\	.	(32a\KLL	.	(32a\KLL	.	.	.	.	.	.	.	.
.	.	.	.	.	16.ee-\JJ)	.	16.ee-\JJ)	.	.	.	.	.	.	.	.
!	!	!	!	!	!LO:LB:g=original	!	!LO:LB:g=original	!	!	!	!	!	!	!	!
.	.	.	.	.	8qqdd/	.	8qqdd/	.	.	.	.	.	.	.	.
8F\	.	.	8F\	.	4ccT\	.	4ccT\	.	.	.	.	.	.	.	.
8E-\J	.	.	8E-\J	.	.	.	.	.	.	.	.	.	.	.	.
=10	=10	=10	=10	=10	=10	=10	=10	=10	=10	=10	=10	=10	=10	=10	=10
8D/L	6	.	8D/L	.	4b-\	.	4b-/	.	2ryy	2ryy	2ryy	.	.	2ryy	2ryy
8C/	.	.	8C/	.	.	.	.	.	.	.	.	.	.	.	.
8BB-/	.	.	8BB-/	.	8r	.	8r	.	.	.	.	.	.	.	.
!	!	!	!	!	!	!	!	!LO:DY:t=p&colon;	!	!	!	!	!	!	!
8D/J	.	.	8D/J	.	8ff\	.	8ff\	p	.	.	.	.	.	.	.
!	!	!	!LO:LB:g=original	!	!	!	!	!	!	!	!	!	!	!	!
=11	=11	=11	=11	=11	=11	=11	=11	=11	=11	=11	=11	=11	=11	=11	=11
.	.	.	.	.	8qqff#X/	.	8qqff#X/	.	.	.	.	.	.	.	.
8r	.	.	8r	.	4.gg\	.	4.gg\	.	2ryy	2ryy	2ryy	.	.	2ryy	2ryy
16E-\LL	.	.	16E-\LL	.	.	.	.	.	.	.	.	.	.	.	.
16D\JJ	.	.	16D\JJ	.	.	.	.	.	.	.	.	.	.	.	.
8E-\L	.	.	8E-\L	.	.	.	.	.	.	.	.	.	.	.	.
8F\J	.	.	8F\J	.	8a/	.	8a/	.	.	.	.	.	.	.	.
=12	=12	=12	=12	=12	=12	=12	=12	=12	=12	=12	=12	=12	=12	=12	=12
.	.	.	.	.	8qqa/	.	8qqa/	.	.	.	.	.	.	.	.
8r	.	.	8r	.	4.b-/	.	4.b-/	.	2ryy	2ryy	2ryy	.	.	2ryy	2ryy
16G\LL	.	.	16G\LL	.	.	.	.	.	.	.	.	.	.	.	.
16F\JJ	.	.	16F\JJ	.	.	.	.	.	.	.	.	.	.	.	.
8G\L	.	.	8G\L	.	.	.	.	.	.	.	.	.	.	.	.
8D\J	6	.	8D\J	.	8f/	f	8f/	f	.	.	.	.	.	.	.
=13	=13	=13	=13	=13	=13	=13	=13	=13	=13	=13	=13	=13	=13	=13	=13
!LO:TX:t=P:problem:mixed beam	!	!	!LO:TX:t=P:problem:mixed beam	!	!	!	!	!	!	!	!	!	!	!	!
8E-\L	.	.	8E-\L	.	(32g/KLL	.	(32g/KLL	.	2ryy	2ryy	2ryy	1r	.	2ryy	2ryy
.	.	.	.	.	16.b-/JJ)	.	16.b-/JJ)	.	.	.	.	.	.	.	.
8C\	6	.	8C\	.	(32a\KLL	.	(32a\KLL	.	.	.	.	.	.	.	.
.	.	.	.	.	16.ee-\JJ)	.	16.ee-\JJ)	.	.	.	.	.	.	.	.
.	.	.	.	.	8qqdd/	.	8qqdd/	.	.	.	.	.	.	.	.
8F\	5 4	.	8F\	.	4ccT\	.	4ccT\	.	.	.	.	.	.	.	.
8FF/J	7 3	.	8FF/J	.	.	.	.	.	.	.	.	.	.	.	.
=14	=14	=14	=14	=14	=14	=14	=14	=14	=14	=14	=14	=14	=14	=14	=14
!	!	!	!	!	!LO:TX:t=P:problem:mixed beam	!	!LO:TX:t=P:problem:mixed beam	!	!	!	!	!	!	!	!
4BB-/	.	.	4BB-/	.	8b-\L	.	(16b-\LL	.	2ryy	2ryy	2ryy	.	.	2ryy	2ryy
.	.	.	.	.	.	.	16dd\)	.	.	.	.	.	.	.	.
.	.	.	.	.	16d/L	.	16f/|	.	.	.	.	.	.	.	.
.	.	.	.	.	16c/JJ	.	16e-/JJ|	.	.	.	.	.	.	.	.
.	.	.	.	.	8qqc/	.	8qqe-/	.	.	.	.	.	.	.	.
16r	.	.	16r	.	4B-/	.	4d/	.	.	.	.	.	.	.	.
16BB-/LL	.	.	16BB-/LL	.	.	.	.	.	.	.	.	.	.	.	.
16D/	.	.	16D/	.	.	.	.	.	.	.	.	.	.	.	.
16F/JJ	.	.	16F/JJ	.	.	.	.	.	.	.	.	.	.	.	.
=15	=15	=15	=15	=15	=15	=15	=15	=15	=15	=15	=15	=15	=15	=15	=15
!	!	!LO:DY:t=pia&colon;	!	!LO:DY:t=piano	!	!	!	!	!	!	!	!	!	!	!
8B-\L	.	p	8B-\L	p	(32d/LLL	p	(32b-\LLL	p	2ryy	2ryy	2ryy	8b-\	Cre-	2ryy	2ryy
.	.	.	.	.	32e-/	.	32cc\	.	.	.	.	.	.	.	.
.	.	.	.	.	32f/	.	32dd\	.	.	.	.	.	.	.	.
.	.	.	.	.	32e-/JJ)	.	32cc\JJ)	.	.	.	.	.	.	.	.
8B-\	.	.	8B-\	.	8d/J	.	8.b-\J	.	.	.	.	16b-\	-di-	.	.
.	.	.	.	.	.	.	.	.	.	.	.	16b-\	-di	.	.
8A\	2	.	8A\	.	8d/L	.	.	.	.	.	.	8b-\	prop-	.	.
.	.	.	.	.	.	.	16f/LL	.	.	.	.	.	.	.	.
8A\J	.	.	8A\J	.	8d/J	.	16g/	.	.	.	.	8b-\	-ter	.	.
.	.	.	.	.	.	.	16a/JJ	.	.	.	.	.	.	.	.
=16	=16	=16	=16	=16	=16	=16	=16	=16	=16	=16	=16	=16	=16	=16	=16
8G\L	5	.	8G\L	.	8.d/L	.	(32b-\LLL	.	2ryy	2ryy	2ryy	4.b-\	quod	2ryy	2ryy
.	.	.	.	.	.	.	32cc\	.	.	.	.	.	.	.	.
.	.	.	.	.	.	.	32dd\	.	.	.	.	.	.	.	.
.	.	.	.	.	.	.	32cc\JJJ)	.	.	.	.	.	.	.	.
16F\L	.	.	16F\L	.	.	.	4b-\	.	.	.	.	.	.	.	.
16E-\JJ	.	.	16E-\JJ	.	16e-/k	.	.	.	.	.	.	.	.	.	.
8D\L	6	.	8D\L	.	8f/	.	.	.	.	.	.	.	.	.	.
8D\J	.	.	8D\J	.	8f/J	.	8bn\	.	.	.	.	8bn\	lo-	.	.
=17	=17	=17	=17	=17	=17	=17	=17	=17	=17	=17	=17	=17	=17	=17	=17
!LO:TX:t=P:problem:mixed beam	!	!	!LO:TX:t=P:problem:mixed beam	!	!	!	!	!	!	!	!	!	!	!	!
8E-\L	6	.	8E-\L	.	8g/L	.	(32cc\KLL	.	2ryy	2ryy	2ryy	4.cc\	-cu-	2ryy	2ryy
.	.	.	.	.	.	.	16.ee-\JJ)	.	.	.	.	.	.	.	.
8E-\	.	.	8E-\	.	8g/	.	(32dd\KLL	.	.	.	.	.	.	.	.
.	.	.	.	.	.	.	16.cc\JJ)	.	.	.	.	.	.	.	.
8AA/	7	.	8AA/	.	8cc\	.	(32gg\KLL	.	.	.	.	.	.	.	.
.	.	.	.	.	.	.	16.ee-\JJ)	.	.	.	.	.	.	.	.
8AA/J	6	.	8AA/J	.	8f/J	.	(32dd\KLL	.	.	.	.	16dd\LL	-tus	.	.
.	.	.	.	.	.	.	16.cc\JJ)	.	.	.	.	.	.	.	.
.	.	.	.	.	.	.	.	.	.	.	.	16ee-\JJ	.	.	.
=18	=18	=18	=18	=18	=18	=18	=18	=18	=18	=18	=18	=18	=18	=18	=18
8BB-/L	.	.	8BB-/L	.	8f/L	.	(32dd\LLL	.	2ryy	2ryy	2ryy	8dd\	sum	2ryy	2ryy
.	.	.	.	.	.	.	32cc\JJ	.	.	.	.	.	.	.	.
.	.	.	.	.	.	.	8.b-\J)	.	.	.	.	.	.	.	.
8BB-/	.	.	8BB-/	.	8dd\	.	.	.	.	.	.	16f/	e-	.	.
.	.	.	.	.	.	.	.	.	.	.	.	16f/	-go	.	.
8D/	6	.	8D/	.	8b-\	.	[4ff\	.	.	.	.	8f/	au-	.	.
8D/J	.	.	8D/J	.	8b-\J	.	.	.	.	.	.	8f/	-tem	.	.
!LO:LB:g=original	!	!	!	!	!	!	!	!	!	!	!	!	!	!	!
=19	=19	=19	=19	=19	=19	=19	=19	=19	=19	=19	=19	=19	=19	=19	=19
4.E-\	9	.	4.E-\	.	8b-/L	.	8ff\L]	.	2ryy	2ryy	2ryy	8g/	hu-	2ryy	2ryy
.	.	.	.	.	8b-/	.	(32gg\KL	.	.	.	.	16g/	-mi-	.	.
.	.	.	.	.	.	.	16.ff\JJ)	.	.	.	.	.	.	.	.
.	.	.	.	.	.	.	.	.	.	.	.	16g/	-li-	.	.
!	!	!	!	!	!	!	!LO:LB:g=original	!	!	!	!	!	!	!	!
.	8	.	.	.	8g/	.	(32ee-\KLL	.	.	.	.	8g/	-a-	.	.
.	.	.	.	.	.	.	16.dd\JJ)	.	.	.	.	.	.	.	.
8En\	6 5	.	8En\	.	8g/J	.	(32cc\KLL	.	.	.	.	16cc\	-tus	.	.
.	.	.	.	.	.	.	16.b-\JJ)	.	.	.	.	.	.	.	.
.	.	.	.	.	.	.	.	.	.	.	.	16b-\	sum	.	.
!	!	!	!	!	!	!	!	!	!	!	!	!LO:LB:g=original	!	!	!
=20	=20	=20	=20	=20	=20	=20	=20	=20	=20	=20	=20	=20	=20	=20	=20
!LO:TX:t=P:problem:mixed beam	!	!	!	!	!	!	!	!	!	!	!	!	!	!	!
8F\L	.	.	8F\L	.	8c/L	.	8a\L	.	2ryy	2ryy	2ryy	8a\	ni-	2ryy	2ryy
8BB-/J	.	.	8BB-\J	.	8d/J	.	8b-\J	.	.	.	.	8b-\	-mis	.	.
4r	.	.	4r	.	4r	.	8r	.	.	.	.	8r	.	.	.
.	.	.	.	.	.	.	16b-\LL	.	.	.	.	16b-\	e-	.	.
.	.	.	.	.	.	.	16cc\JJ	.	.	.	.	16cc\	-go	.	.
!	!	!	!LO:LB:g=original	!	!	!	!	!	!	!	!	!	!	!	!
=21	=21	=21	=21	=21	=21	=21	=21	=21	=21	=21	=21	=21	=21	=21	=21
8r	.	.	8r	.	8r	.	8dd\L	.	2ryy	2ryy	2ryy	16dd\	di-	2ryy	2ryy
.	.	.	.	.	.	.	.	.	.	.	.	16dd\	-xi	.	.
8B-\L	.	.	8B-\L	.	8f/L	.	8dd\	.	.	.	.	16dd\	in	.	.
.	.	.	.	.	.	.	.	.	.	.	.	16dd\	ex-	.	.
8B-\	.	.	8B-\	.	8f/	.	8dd\	.	.	.	.	(16dd\LL	-ceſ-	.	.
.	.	.	.	.	.	.	.	.	.	.	.	16b-\JJ)	.	.	.
8B-\J	.	.	8B-\J	.	8b-/J	.	8dd\J	.	.	.	.	(16ff\LL	-su	.	.
.	.	.	.	.	.	.	.	.	.	.	.	16dd\JJ)	.	.	.
!	!	!	!	!	!LO:LB:g=original	!	!	!	!	!	!	!	!	!	!
=22	=22	=22	=22	=22	=22	=22	=22	=22	=22	=22	=22	=22	=22	=22	=22
.	.	.	.	.	.	.	8qqee-/	.	.	.	.	.	.	.	.
8F\L	.	.	8F\L	.	8b-/L	.	8dd\L	.	2ryy	2ryy	2ryy	8dd\	me-	2ryy	2ryy
8F\	.	.	8F\	.	8a/J	.	8cc\J	.	.	.	.	8cc\	-o	.	.
8A\	6	.	8A\	.	8r	.	[4ff\	.	.	.	.	8ff\	om-	.	.
8A\J	.	.	8A\J	.	8cc\	.	.	.	.	.	.	8ff\	-nis	.	.
=23	=23	=23	=23	=23	=23	=23	=23	=23	=23	=23	=23	=23	=23	=23	=23
8G\L	7	.	8G\L	.	4.b-\	.	8ff\L]	.	2ryy	2ryy	2ryy	4.gg\	ho-	2ryy	2ryy
8G\	-6r	.	8G\	.	.	.	16een\L	.	.	.	.	.	.	.	.
.	.	.	.	.	.	.	16ff\JJ	.	.	.	.	.	.	.	.
8En\	6 5	.	8En\	.	.	.	8gg\L	.	.	.	.	.	.	.	.
8E\J	.	.	8E\J	.	8gg\	.	8b-\J	.	.	.	.	8b-\	-mo	.	.
=24	=24	=24	=24	=24	=24	=24	=24	=24	=24	=24	=24	=24	=24	=24	=24
*	*	*	*	*	*^	*	*	*	*	*	*	*	*	*	*
.	.	.	.	.	.	.	.	8qqcc/	.	.	.	.	.	.	.	.
!LO:TX:t=P:problem:mixed beam	!	!	!LO:TX:t=P:problem:mixed beam	!	!	!	!	!	!	!	!	!	!	!	!	!
8FF/L	4 9	.	8FF/L	.	8gg/L	4ryy	.	8b-/L	.	2ryy	2ryy	2ryy	8b-\	men-	2ryy	2ryy
8F\J	3 8	.	8F\J	.	8ff/J	.	.	8a/J	.	.	.	.	8a\	-dax	.	.
4FF/	.	.	4FF/	.	4ff/ 4a/	4f\	.	4aa/ 4cc/ 4f/	.	.	.	.	8r	.	.	.
.	.	.	.	.	.	.	.	.	.	.	.	.	16cc\	quid	.	.
.	.	.	.	.	.	.	.	.	.	.	.	.	16a\	re-	.	.
*	*	*	*	*	*v	*v	*	*	*	*	*	*	*	*	*	*
=25	=25	=25	=25	=25	=25	=25	=25	=25	=25	=25	=25	=25	=25	=25	=25
8r	.	.	8r	.	8r	.	8r	.	2ryy	2ryy	2ryy	8.f/	-tri-	2ryy	2ryy
8AA/L	6	.	8AA/L	.	8f/L	.	16cc\LL	.	.	.	.	.	.	.	.
.	.	.	.	.	.	.	16a\JJ	.	.	.	.	16f/	-bu-	.	.
.	.	.	.	.	.	.	.	.	.	.	.	8qqf/	.	.	.
!	!	!	!	!	!	!	!LO:TX:t=P:problem:mixed beam	!	!	!	!	!	!	!	!
8AA/	.	.	8AA/	.	8f/	.	8f/L	.	.	.	.	4ee-\	-am	.	.
8AA/J	-5	.	8AA/J	.	8f/J	.	8ee-X\J	.	.	.	.	.	.	.	.
!	!	!	!	!	!	!	!	!	!	!	!	!LO:PB:g=original	!	!	!
=26	=26	=26	=26	=26	=26	=26	=26	=26	=26	=26	=26	=26	=26	=26	=26
.	.	.	.	.	.	.	.	.	.	.	.	8qqee-/	.	.	.
8BB-/L	.	.	8BB-/L	.	8f/L	.	8dd\L	.	2ryy	2ryy	2ryy	8.dd\	Do-	2ryy	2ryy
8BB-/J	.	.	8BB-/J	.	8f/	.	8dd\	.	.	.	.	.	.	.	.
.	.	.	.	.	.	.	.	.	.	.	.	16dd\	-mi-	.	.
8F\L	.	.	8F\L	.	8a/	.	8cc\	.	.	.	.	4cc\	-no	.	.
8F\J	.	.	8F\J	.	8a/J	.	8cc\J	.	.	.	.	.	.	.	.
=27	=27	=27	=27	=27	=27	=27	=27	=27	=27	=27	=27	=27	=27	=27	=27
8G\L	.	.	8G\L	.	8d/L	.	(32b-\LLL	.	2ryy	2ryy	2ryy	8r	.	2ryy	2ryy
.	.	.	.	.	.	.	32cc\	.	.	.	.	.	.	.	.
.	.	.	.	.	.	.	32dd\	.	.	.	.	.	.	.	.
.	.	.	.	.	.	.	32cc\JJJ)	.	.	.	.	.	.	.	.
8G\	.	.	8G\	.	8d/	.	4.b-\	.	.	.	.	8b-\	pro	.	.
8F\	4 2	.	8F\	.	8d/	.	.	.	.	.	.	8b-\	om-	.	.
8F\J	.	.	8F\J	.	8d/J	.	.	.	.	.	.	16b-\	-ni-	.	.
.	.	.	.	.	.	.	.	.	.	.	.	16b-\	-bus	.	.
=28	=28	=28	=28	=28	=28	=28	=28	=28	=28	=28	=28	=28	=28	=28	=28
8En\L	6 5	.	8En\L	.	8g/L	.	(32b-\LLL	.	2ryy	2ryy	2ryy	4.gg\	quae	2ryy	2ryy
.	.	.	.	.	.	.	32cc\	.	.	.	.	.	.	.	.
.	.	.	.	.	.	.	32dd\	.	.	.	.	.	.	.	.
.	.	.	.	.	.	.	32cc\JJJ)	.	.	.	.	.	.	.	.
8E\	.	.	8E\	.	8g/	.	4.b-\	.	.	.	.	.	.	.	.
8D\	6	.	8D\	.	8f/	.	.	.	.	.	.	.	.	.	.
8D\J	.	.	8D\J	.	8f/J	.	.	.	.	.	.	8b-\	re-	.	.
=29	=29	=29	=29	=29	=29	=29	=29	=29	=29	=29	=29	=29	=29	=29	=29
8C/L	7 n	.	8C/L	.	8en/L	.	8g/L	.	2ryy	2ryy	2ryy	8.b-\	-tri-	2ryy	2ryy
8C/	.	.	8C/	.	8e/	.	8g/	.	.	.	.	.	.	.	.
.	.	.	.	.	.	.	.	.	.	.	.	16a-X\	-bu-	.	.
8BBn/	-7r 5	.	8BBn/	.	8f/	.	8a-X/	.	.	.	.	4a-\	-it	.	.
8BB/J	.	.	8BB/J	.	8f/J	.	8a-/J	.	.	.	.	.	.	.	.
!LO:LB:g=original	!	!	!	!	!	!	!	!	!	!	!	!	!	!	!
=30	=30	=30	=30	=30	=30	=30	=30	=30	=30	=30	=30	=30	=30	=30	=30
.	.	.	.	.	.	.	.	.	.	.	.	8qqb-/	.	.	.
!	!	!	!	!	!	!	!LO:SIC:v:s=8a-/L	!	!	!	!	!	!	!	!
16C/LL	-6 4	.	16C/LL	.	8f/L	.	8a/L	.	2ryy	2ryy	2ryy	8a-X\	mi-	2ryy	2ryy
16BBn/	.	.	16BBn/	.	.	.	.	.	.	.	.	.	.	.	.
16C/	5 n	.	16C/	.	8en/J	.	8g/J	.	.	.	.	8g/	-hi	.	.
16D/JJ	.	.	16D/JJ	.	.	.	.	.	.	.	.	.	.	.	.
16En\LL	6	.	16En\LL	.	4r	.	4r	.	.	.	.	4r	.	.	.
16D\	.	.	16D\	.	.	.	.	.	.	.	.	.	.	.	.
16E\	.	.	16E\	.	.	.	.	.	.	.	.	.	.	.	.
16F\JJ	.	.	16F\JJ	.	.	.	.	.	.	.	.	.	.	.	.
!	!	!	!LO:LB:g=original	!	!	!	!LO:LB:g=original	!	!	!	!	!	!	!	!
=31	=31	=31	=31	=31	=31	=31	=31	=31	=31	=31	=31	=31	=31	=31	=31
8r	.	.	8r	.	8r	.	8r	.	2ryy	2ryy	2ryy	16b-\	ca-	2ryy	2ryy
.	.	.	.	.	.	.	.	.	.	.	.	16g/	-li-	.	.
.	.	.	.	.	.	.	.	.	.	.	.	8qqf/	.	.	.
8G\L	n6r	.	8G\L	.	8b-\L	.	(16bb-\LL	.	.	.	.	4.en/	-cem	.	.
.	.	.	.	.	.	.	16gg\JJ)	.	.	.	.	.	.	.	.
.	.	.	.	.	.	.	8qqff/	.	.	.	.	.	.	.	.
8G\	.	.	8G\	.	8b-\	.	4een\	.	.	.	.	.	.	.	.
8G\J	.	.	8G\J	.	8b-\J	.	.	.	.	.	.	.	.	.	.
=32	=32	=32	=32	=32	=32	=32	=32	=32	=32	=32	=32	=32	=32	=32	=32
8r	.	.	8r	.	8r	.	8r	.	2ryy	2ryy	2ryy	(16cc\LL	sa-	2ryy	2ryy
.	.	.	.	.	.	.	.	.	.	.	.	16a\JJ)	.	.	.
.	.	.	.	.	.	.	.	.	.	.	.	8qqg/	.	.	.
8An\L	6	.	8An\L	.	8cc\L	.	(16ccc\LL	.	.	.	.	4f/	.	.	.
.	.	.	.	.	.	.	16aan\JJ)	.	.	.	.	.	.	.	.
.	.	.	.	.	.	.	8qqgg/	.	.	.	.	.	.	.	.
8A\	.	.	8A\	.	8cc\	.	4ff\	.	.	.	.	.	.	.	.
8A\J	.	.	8A\J	.	8cc\J	.	.	.	.	.	.	8f/	-lu-	.	.
!	!	!	!	!	!	!	!	!	!	!	!	!LO:LB:g=original	!	!	!
=33	=33	=33	=33	=33	=33	=33	=33	=33	=33	=33	=33	=33	=33	=33	=33
!LO:TX:t=P:problem:mixed beam	!	!	!LO:TX:t=P:problem:mixed beam	!	!	!	!	!	!	!	!	!	!	!	!
8G\L	n6r	.	8G\L	.	8b-\L	.	8.eent\L	.	2ryy	2ryy	2ryy	(16b-\LL	-ta-	2ryy	2ryy
.	.	.	.	.	.	.	.	.	.	.	.	16g\JJ)	.	.	.
8GG/	.	.	8GG/	.	8b-\	.	.	.	.	.	.	4en/	-ris	.	.
.	.	.	.	.	.	.	(32dd\LL	.	.	.	.	.	.	.	.
.	.	.	.	.	.	.	32ee\JJJ)	.	.	.	.	.	.	.	.
8GG/	.	.	8GG/	.	8b-\	.	(16bb-\LL	.	.	.	.	.	.	.	.
.	.	.	.	.	.	.	16gg\)	.	.	.	.	.	.	.	.
8GG/J	.	.	8GG/J	.	8b-\J	.	(16gg\	.	.	.	.	8e/	ac-	.	.
.	.	.	.	.	.	.	16een\JJ)	.	.	.	.	.	.	.	.
=34	=34	=34	=34	=34	=34	=34	=34	=34	=34	=34	=34	=34	=34	=34	=34
8AA/L	6	.	8AA/L	.	8cc\L	.	8.ffT\L	.	2ryy	2ryy	2ryy	16cc\	-ci-	2ryy	2ryy
.	.	.	.	.	.	.	.	.	.	.	.	16a\	-pi-	.	.
.	.	.	.	.	.	.	.	.	.	.	.	8qqg/	.	.	.
8AA/	.	.	8AA/	.	8cc\	.	.	.	.	.	.	4.f/	-am	.	.
.	.	.	.	.	.	.	(32een\LL	.	.	.	.	.	.	.	.
.	.	.	.	.	.	.	32ff\JJJ)	.	.	.	.	.	.	.	.
8AA/	.	.	8AA/	.	8cc\	.	(16ccc\LL	.	.	.	.	.	.	.	.
.	.	.	.	.	.	.	16aa\)	.	.	.	.	.	.	.	.
8AA/J	.	.	8AA/J	.	8cc\J	.	(16aa\	.	.	.	.	.	.	.	.
.	.	.	.	.	.	.	16ff\JJ)	.	.	.	.	.	.	.	.
!	!	!	!	!	!LO:LB:g=original	!	!	!	!	!	!	!	!	!	!
=35	=35	=35	=35	=35	=35	=35	=35	=35	=35	=35	=35	=35	=35	=35	=35
8BB-/L	6	.	8BB-/L	.	8dd\L	.	4.gg\	.	2ryy	2ryy	2ryy	8dd\L	et	2ryy	2ryy
8C/	n	.	8C/	.	8een\	.	.	.	.	.	.	8cc\J	.	.	.
8D-X/	6 4	.	8D-X/	.	8bn\	.	.	.	.	.	.	4bn\	No-	.	.
8D-/J	3	.	8D-/J	.	8b\J	.	8ff\	.	.	.	.	.	.	.	.
=36	=36	=36	=36	=36	=36	=36	=36	=36	=36	=36	=36	=36	=36	=36	=36
8C\L	n	.	8C\L	.	8cc\L|	.	8een\L|	.	2ryy	2ryy	2ryy	8cc\	.	2ryy	2ryy
8B-\	n4r 2	.	8B-\	.	(8cc\	.	(8ee\	.	.	.	.	8en/	-men	.	.
8A\	6 4	.	8A\	.	8dd\	.	8ff\	.	.	.	.	16f/	Do-	.	.
.	.	.	.	.	.	.	.	.	.	.	.	16g/	-mi-	.	.
8G\J	n6r	.	8G\J	.	8een\J)	.	8gg\J)	.	.	.	.	8g/	-ni	.	.
=37	=37	=37	=37	=37	=37	=37	=37	=37	=37	=37	=37	=37	=37	=37	=37
!LO:TX:t=P:problem:mixed beam	!	!	!LO:TX:t=P:problem:mixed beam	!	!	!	!	!	!	!	!	!	!	!	!
8F\L	.	.	8F\L	.	8ff\L	.	8aa\L	.	2ryy	2ryy	2ryy	(16a\LL	in-	2ryy	2ryy
.	.	.	.	.	.	.	.	.	.	.	.	16f\JJ)	.	.	.
8B-\	6	.	8B-\	.	8dd\	.	16bb-\L	.	.	.	.	(16dd\LL	-vo-	.	.
.	.	.	.	.	.	.	16gg\JJ	.	.	.	.	16b-\JJ)	.	.	.
8c\	6 4	.	8c\	.	8cc\	.	8ff\L	.	.	.	.	8a\L	-ca-	.	.
8C/J	7 n	.	8C/J	.	8b-\J	.	8een\J	.	.	.	.	8gT\J	.	.	.
=38	=38	=38	=38	=38	=38	=38	=38	=38	=38	=38	=38	=38	=38	=38	=38
8D\L	5	.	8D\L	.	(32a/LLL	.	(32ff\LLL	.	2ryy	2ryy	2ryy	4f/	-bo	2ryy	2ryy
.	.	.	.	.	32b-/	.	32gg\	.	.	.	.	.	.	.	.
.	.	.	.	.	32cc/	.	32aa\	.	.	.	.	.	.	.	.
.	.	.	.	.	32b-/JJ)	.	32gg\JJ)	.	.	.	.	.	.	.	.
8D\	.	.	8D\	.	8a/J|	.	8ff\J|	.	.	.	.	.	.	.	.
8F\	6	.	8F\	.	8a/L	.	8ff\L	.	.	.	.	8dd\	vo-	.	.
8F\J	.	.	8F\J	.	8a/J	.	8ff\J	.	.	.	.	8dd\	-ta	.	.
=39	=39	=39	=39	=39	=39	=39	=39	=39	=39	=39	=39	=39	=39	=39	=39
.	.	.	.	.	.	.	.	.	.	.	.	8qqee-/	.	.	.
8G\L	6 5	.	8G\L	.	8b-/L	.	8een\L	.	2ryy	2ryy	2ryy	4dd\	me-	2ryy	2ryy
8G\	.	.	8G\	.	8b-/	.	8ee\	.	.	.	.	.	.	.	.
8En\	6	.	8En\	.	8g/	.	8ee\	.	.	.	.	4cc\	-a	.	.
8E\J	.	.	8E\J	.	8g/J	.	8ee\J	.	.	.	.	.	.	.	.
!LO:LB:g=original	!	!	!	!	!	!	!	!	!	!	!	!	!	!	!
=40	=40	=40	=40	=40	=40	=40	=40	=40	=40	=40	=40	=40	=40	=40	=40
8F\L	6 5	.	8F\L	.	8a/L	.	8dd\L	.	2ryy	2ryy	2ryy	8.cc\	Do-	2ryy	2ryy
8F\	.	.	8F\	.	8a/	.	8dd\	.	.	.	.	.	.	.	.
.	.	.	.	.	.	.	.	.	.	.	.	16b-\	-mi-	.	.
8D\	6	.	8D\	.	8f/	.	8dd\	.	.	.	.	4b-\	-no	.	.
8D\J	.	.	8D\J	.	8f/J	.	8dd\J	.	.	.	.	.	.	.	.
!	!	!	!	!	!	!	!	!	!	!	!	!LO:LB:g=original	!	!	!
=41	=41	=41	=41	=41	=41	=41	=41	=41	=41	=41	=41	=41	=41	=41	=41
.	.	.	.	.	.	.	.	.	.	.	.	8qqcc/	.	.	.
8En\L	6 5	.	8En\L	.	8g/L	.	8cc\L	.	2ryy	2ryy	2ryy	4b-\	red-	2ryy	2ryy
8E\	.	.	8E\	.	8g/	.	8cc\	.	.	.	.	.	.	.	.
8C\	6 n	.	8C\	.	8en/	.	8cc\	.	.	.	.	4a\	-dam	.	.
8C\J	.	.	8C\J	.	8e/J	.	8cc\J	.	.	.	.	.	.	.	.
=42	=42	=42	=42	=42	=42	=42	=42	=42	=42	=42	=42	=42	=42	=42	=42
.	.	.	.	.	.	.	.	.	.	.	.	8qqb-/	.	.	.
8D/L	6 5	.	8D/L	.	8f/L	.	8b-/L	.	2ryy	2ryy	2ryy	4a\	co-	2ryy	2ryy
8D/	.	.	8D/	.	8f/	.	8b-/	.	.	.	.	.	.	.	.
8BB-/	6	.	8BB-/	.	8d/	.	8b-/	.	.	.	.	4g/	-ram	.	.
8BB-/J	.	.	8BB-/J	.	8d/J	.	8b-/J	.	.	.	.	.	.	.	.
!	!	!	!LO:LB:g=original	!	!	!	!LO:LB:g=original	!	!	!	!	!	!	!	!
=43	=43	=43	=43	=43	=43	=43	=43	=43	=43	=43	=43	=43	=43	=43	=43
8C/L	6 5 n	.	8C/L	.	8en/L	.	8a/L	.	2ryy	2ryy	2ryy	4g/	om-	2ryy	2ryy
8C/	.	.	8C/	.	8e/	.	8a/	.	.	.	.	.	.	.	.
8AA/	6	.	8AA/	.	8c/	.	8a/	.	.	.	.	4f/	-ni	.	.
8AA/J	.	.	8AA/J	.	8c/J	.	8a/J	.	.	.	.	.	.	.	.
=44	=44	=44	=44	=44	=44	=44	=44	=44	=44	=44	=44	=44	=44	=44	=44
8BB-/L	6	.	8BB-/L	.	8d/L	.	8g/L	.	2ryy	2ryy	2ryy	8.b-\	po-	2ryy	2ryy
8BB-/	.	.	8BB-/	.	8d/	.	8gg\	.	.	.	.	.	.	.	.
.	.	.	.	.	.	.	.	.	.	.	.	16a-X\	-pu-	.	.
8BBn/	-7r 5	.	8BBn/	.	8d/	.	8ff\	.	.	.	.	4a-\	-lo	.	.
8BB/J	.	.	8BB/J	.	8d/J	.	8ff\J	.	.	.	.	.	.	.	.
=45	=45	=45	=45	=45	=45	=45	=45	=45	=45	=45	=45	=45	=45	=45	=45
.	.	.	.	.	.	.	.	.	.	.	.	8qqb-/	.	.	.
16C/LL	-6 4	.	16C/LL	.	16c/LL	.	8ff\L	.	2ryy	2ryy	2ryy	8a-X\	e-	2ryy	2ryy
16BBn/	.	.	16BBn/	.	16d/	.	.	.	.	.	.	.	.	.	.
16C/	5 n	.	16C/	.	16en/	.	8een\J	.	.	.	.	8g\	-jus	.	.
16D/JJ	.	.	16D/JJ	.	16f/JJ	.	.	.	.	.	.	.	.	.	.
16En\LL	6	.	16En\LL	.	16g/LL	.	4r	.	.	.	.	4r	.	.	.
16D\	.	.	16D\	.	16f/	.	.	.	.	.	.	.	.	.	.
16E\	.	.	16E\	.	16g/	.	.	.	.	.	.	.	.	.	.
16F\JJ	.	.	16F\JJ	.	16a/JJ	.	.	.	.	.	.	.	.	.	.
!	!	!	!	!	!LO:LB:g=original	!	!	!	!	!	!	!	!	!	!
=46	=46	=46	=46	=46	=46	=46	=46	=46	=46	=46	=46	=46	=46	=46	=46
8r	.	.	8r	.	8r	.	8r	.	2ryy	2ryy	2ryy	(16b-\LL	pre-	2ryy	2ryy
.	.	.	.	.	.	.	.	.	.	.	.	16g\JJ)	.	.	.
8G\L	n6r	.	8G\L	.	8b-\L	.	(16bb-\LL	.	.	.	.	4en/	.	.	.
.	.	.	.	.	.	.	16gg\JJ)	.	.	.	.	.	.	.	.
.	.	.	.	.	.	.	8qqff/	.	.	.	.	.	.	.	.
8G\	.	.	8G\	.	8b-\	.	4een\	.	.	.	.	.	.	.	.
8G\J	.	.	8G\J	.	8b-\J	.	.	.	.	.	.	8e/	-ti-	.	.
=47	=47	=47	=47	=47	=47	=47	=47	=47	=47	=47	=47	=47	=47	=47	=47
8r	.	.	8r	.	8r	.	8r	.	2ryy	2ryy	2ryy	(16cc\LL	-o-	2ryy	2ryy
.	.	.	.	.	.	.	.	.	.	.	.	16an\JJ)	.	.	.
.	.	.	.	.	.	.	.	.	.	.	.	8qqg/	.	.	.
8A\L	6	.	8A\L	.	8cc\L	.	(16ccc\LL	.	.	.	.	4f/	-sa	.	.
.	.	.	.	.	.	.	16aa\JJ)	.	.	.	.	.	.	.	.
.	.	.	.	.	.	.	8qqgg/	.	.	.	.	.	.	.	.
8A\	.	.	8A\	.	8cc\	.	4ff\	.	.	.	.	.	.	.	.
8A\J	.	.	8A\J	.	8cc\J	.	.	.	.	.	.	16f/	in	.	.
.	.	.	.	.	.	.	.	.	.	.	.	16f/	con-	.	.
=48	=48	=48	=48	=48	=48	=48	=48	=48	=48	=48	=48	=48	=48	=48	=48
!LO:TX:t=P:problem:mixed beam	!	!	!LO:TX:t=P:problem:mixed beam	!	!	!	!	!	!	!	!	!	!	!	!
8G\L	n6r	.	8G\L	.	8b-\L	.	8.eent\L	.	2ryy	2ryy	2ryy	(16b-\LL	-spec-	2ryy	2ryy
.	.	.	.	.	.	.	.	.	.	.	.	16g\JJ)	.	.	.
.	.	.	.	.	.	.	.	.	.	.	.	8qqf/	.	.	.
8GG/	.	.	8GG/	.	8b-\	.	.	.	.	.	.	4.en/	-tu	.	.
.	.	.	.	.	.	.	(32dd\LL	.	.	.	.	.	.	.	.
.	.	.	.	.	.	.	32ee\JJJ)	.	.	.	.	.	.	.	.
8GG/	.	.	8GG/	.	8b-\	.	(16bb-\LL	.	.	.	.	.	.	.	.
.	.	.	.	.	.	.	16gg\)	.	.	.	.	.	.	.	.
8GG/J	.	.	8GG/J	.	8b-\J	.	(16gg\	.	.	.	.	.	.	.	.
.	.	.	.	.	.	.	16een\JJ)	.	.	.	.	.	.	.	.
=49	=49	=49	=49	=49	=49	=49	=49	=49	=49	=49	=49	=49	=49	=49	=49
8AA/L	6	.	8AA/L	.	8cc\L	.	8.ffT\L	.	2ryy	2ryy	2ryy	16cc\	Do-	2ryy	2ryy
.	.	.	.	.	.	.	.	.	.	.	.	16a\	-mi-	.	.
!	!	!	!	!	!	!	!	!	!	!	!	!LO:LB:g=original	!	!	!
.	.	.	.	.	.	.	.	.	.	.	.	8qqg/	.	.	.
8AA/	.	.	8AA/	.	8cc\	.	.	.	.	.	.	4.f/	-ni	.	.
.	.	.	.	.	.	.	(32een\LL	.	.	.	.	.	.	.	.
.	.	.	.	.	.	.	32ff\JJJ)	.	.	.	.	.	.	.	.
8AA/	.	.	8AA/	.	8cc\	.	(16ccc\LL	.	.	.	.	.	.	.	.
.	.	.	.	.	.	.	16aa\)	.	.	.	.	.	.	.	.
8AA/J	.	.	8AA/J	.	8cc\J	.	(16aa\	.	.	.	.	.	.	.	.
.	.	.	.	.	.	.	16ff\JJ)	.	.	.	.	.	.	.	.
=50	=50	=50	=50	=50	=50	=50	=50	=50	=50	=50	=50	=50	=50	=50	=50
8BB-/L	6	.	8BB-/L	.	8dd\L	.	4.gg\	.	2ryy	2ryy	2ryy	4r	.	2ryy	2ryy
8C/	n	.	8C/	.	8cc\	.	.	.	.	.	.	.	.	.	.
8D-X/	6 4	.	8D-X/	.	8bn\	.	.	.	.	.	.	(4bn\	mors	.	.
8D-/J	3	.	8D-/J	.	8b\J	.	8ff\	.	.	.	.	.	.	.	.
!LO:LB:g=original	!	!	!	!	!	!	!	!	!	!	!	!	!	!	!
=51	=51	=51	=51	=51	=51	=51	=51	=51	=51	=51	=51	=51	=51	=51	=51
!LO:TX:t=P:problem:mixed beam	!	!	!LO:TX:t=P:problem:mixed beam	!	!	!	!	!	!	!	!	!	!	!	!
8C/L	n	.	8C/L	.	8cc\L|	.	8een\L|	.	2ryy	2ryy	2ryy	8cc\)	.	2ryy	2ryy
8B-\	n4r 2	.	8B-\	.	(8cc\	.	(8ee\	.	.	.	.	8een\	San-	.	.
8A\	6 4	.	8A\	.	8dd\	.	8ff\	.	.	.	.	8ff\	-cto-	.	.
8G\J	n6r	.	8G\J	.	8een\J)	.	8gg\J)	.	.	.	.	8b-X\	-rum	.	.
=52	=52	=52	=52	=52	=52	=52	=52	=52	=52	=52	=52	=52	=52	=52	=52
!LO:TX:t=P:problem:mixed beam	!	!	!LO:TX:t=P:problem:mixed beam	!	!	!	!	!	!	!	!	!	!	!	!
8F\L	.	.	8F\L	.	4ff\	.	4aa\	.	2ryy	2ryy	2ryy	(4a\	e-	2ryy	2ryy
8A\	.	.	8A\	.	.	.	.	.	.	.	.	.	.	.	.
8c\	n	.	8c\	.	4eent\	.	4ggT\	.	.	.	.	4gT/)	.	.	.
8C/J	.	.	8C/J	.	.	.	.	.	.	.	.	.	.	.	.
=53	=53	=53	=53	=53	=53	=53	=53	=53	=53	=53	=53	=53	=53	=53	=53
8F\L	.	f	8F\L	f	(32ff\LLL	f	(32ff\LLL	f	2ryy	2ryy	2ryy	4f/	-jus	2ryy	2ryy
.	.	.	.	.	32gg\	.	32gg\	.	.	.	.	.	.	.	.
.	.	.	.	.	32aa\	.	32aa\	.	.	.	.	.	.	.	.
.	.	.	.	.	32gg\JJ)	.	32gg\JJ)	.	.	.	.	.	.	.	.
8F\	.	.	8F\	.	8.ff\J	.	8.ff\J	.	.	.	.	.	.	.	.
8En\	4 2	.	8En\	.	.	.	.	.	.	.	.	4r	.	.	.
.	.	.	.	.	16cc\LL	.	16cc\LL	.	.	.	.	.	.	.	.
8E\J	.	.	8E\J	.	16dd\	.	16dd\	.	.	.	.	.	.	.	.
.	.	.	.	.	16een\JJ	.	16een\JJ	.	.	.	.	.	.	.	.
!	!	!	!LO:LB:g=original	!	!	!	!	!	!	!	!	!	!	!	!
=54	=54	=54	=54	=54	=54	=54	=54	=54	=54	=54	=54	=54	=54	=54	=54
!	!	!	!	!	!	!	!	!	!	!	!	!LO:TX:t=5.	!	!	!
8D/L	5	.	8D/L	.	(32ff\LLL	.	(32ff\LLL	.	2ryy	2ryy	2ryy	0r	.	2ryy	2ryy
.	.	.	.	.	32gg\	.	32gg\	.	.	.	.	.	.	.	.
.	.	.	.	.	32aa\	.	32aa\	.	.	.	.	.	.	.	.
.	.	.	.	.	32gg\JJJ)	.	32gg\JJJ)	.	.	.	.	.	.	.	.
16C/L	.	.	16C/L	.	4ff\	.	4ff\	.	.	.	.	.	.	.	.
16BB-/JJ	.	.	16BB-/JJ	.	.	.	.	.	.	.	.	.	.	.	.
8AA/L	6	.	8AA/L	.	.	.	.	.	.	.	.	.	.	.	.
!	!	!	!	!	!LO:SIC:v:s=8ff#\	!	!	!	!	!	!	!	!	!	!
8AA/J	.	.	8AA/J	.	8ffX\	.	8ff#X\	.	.	.	.	.	.	.	.
!	!	!	!	!	!	!	!LO:LB:g=original	!	!	!	!	!	!	!	!
=55	=55	=55	=55	=55	=55	=55	=55	=55	=55	=55	=55	=55	=55	=55	=55
8En\L	6 5	.	8En\L	.	(32gg\KLL	.	(32gg\KLL	.	2ryy	2ryy	2ryy	.	.	2ryy	2ryy
.	.	.	.	.	16.een\JJ)	.	16.een\JJ)	.	.	.	.	.	.	.	.
8E\	.	.	8E\	.	(32cc\KLL	.	(32cc\KLL	.	.	.	.	.	.	.	.
.	.	.	.	.	16.ee\JJ)	.	16.ee\JJ)	.	.	.	.	.	.	.	.
8E\	.	.	8E\	.	(32gg\KLL	.	(32gg\KLL	.	.	.	.	.	.	.	.
.	.	.	.	.	16.bb-\JJ)	.	16.bb-\JJ)	.	.	.	.	.	.	.	.
8E\J	.	.	8E\J	.	(32aa\KLL	.	(32aa\KLL	.	.	.	.	.	.	.	.
.	.	.	.	.	16.gg\JJ)	.	16.gg\JJ)	.	.	.	.	.	.	.	.
=56	=56	=56	=56	=56	=56	=56	=56	=56	=56	=56	=56	=56	=56	=56	=56
!LO:TX:t=P:problem:mixed beam	!	!	!LO:TX:t=P:problem:mixed beam	!	!	!	!	!	!	!	!	!	!	!	!
8F\L	.	.	8F\L	.	8.aa\L	.	8.aa\L	.	2ryy	2ryy	2ryy	.	.	2ryy	2ryy
8F\	.	.	8F\	.	.	.	.	.	.	.	.	.	.	.	.
.	.	.	.	.	16bb-\Jk	.	16bb-\Jk	.	.	.	.	.	.	.	.
8AA/	6	.	8AA/	.	[4ccc\	.	[>4ccc\	.	.	.	.	.	.	.	.
8AA/J	.	.	8AA/J	.	.	.	.	.	.	.	.	.	.	.	.
!	!	!	!	!	!LO:LB:g=original	!	!	!	!	!	!	!	!	!	!
=57	=57	=57	=57	=57	=57	=57	=57	=57	=57	=57	=57	=57	=57	=57	=57
4.BB-/	9	.	4.BB-/	.	8ccc\L]	.	8ccc\L]	.	2ryy	2ryy	2ryy	.	.	2ryy	2ryy
.	.	.	.	.	(32ddd\KL	.	(32ddd\KL	.	.	.	.	.	.	.	.
.	.	.	.	.	16.ccc\JJ)	.	16.ccc\JJ)	.	.	.	.	.	.	.	.
.	8	.	.	.	(32bb-\KLL	.	(32bb-\KLL	.	.	.	.	.	.	.	.
.	.	.	.	.	16.aa\JJ)	.	16.aa\JJ)	.	.	.	.	.	.	.	.
8BBn/	6 5	.	8BBn/	.	(32gg\KLL	.	(32gg\KLL	.	.	.	.	.	.	.	.
.	.	.	.	.	16.ff\JJ)	.	16.ff\JJ)	.	.	.	.	.	.	.	.
=58	=58	=58	=58	=58	=58	=58	=58	=58	=58	=58	=58	=58	=58	=58	=58
8C\L	n	.	8C\L	.	8.een\L	.	8.een\L	.	2ryy	2ryy	2ryy	2r	.	2ryy	2ryy
8B-X\	.	.	8B-X\	.	.	.	.	.	.	.	.	.	.	.	.
.	.	.	.	.	32dd\LL	.	32dd\LL	.	.	.	.	.	.	.	.
.	.	.	.	.	32cc\JJJ	.	32cc\JJJ	.	.	.	.	.	.	.	.
8A\	6	.	8A\	.	8ff\L	.	8ff\L	.	.	.	.	.	.	.	.
8B-\J	.	.	8B-\J	.	8f/J	.	8f/J	.	.	.	.	.	.	.	.
=59	=59	=59	=59	=59	=59	=59	=59	=59	=59	=59	=59	=59	=59	=59	=59
!LO:TX:t=P:problem:mixed beam	!	!	!LO:TX:t=P:problem:mixed beam	!	!	!	!	!	!	!	!	!	!	!	!
8c\L	4	.	8c\L	.	4c/	.	4c/	.	2ryy	2ryy	2ryy	4r	.	2ryy	2ryy
8B-\	.	.	8B-\	.	.	.	.	.	.	.	.	.	.	.	.
8c\	n	.	8c\	.	4ent/	.	4gT/	.	.	.	.	8r	.	.	.
8C/J	.	.	8C/J	.	.	.	.	.	.	.	.	8cc\	O	.	.
=60	=60	=60	=60	=60	=60	=60	=60	=60	=60	=60	=60	=60	=60	=60	=60
.	.	.	.	.	.	.	.	.	.	.	.	8qqb-/	.	.	.
4F\	.	.	4F\	.	4f/	.	4f/	.	2ryy	2ryy	2ryy	8.a\	Do-	2ryy	2ryy
.	.	.	.	.	.	.	.	.	.	.	.	16g/	-mi-	.	.
4r	.	.	4r	.	4r	.	4r	.	.	.	.	8f/	-ne	.	.
.	.	.	.	.	.	.	.	.	.	.	.	16f/	qui-	.	.
.	.	.	.	.	.	.	.	.	.	.	.	16f/	-a	.	.
=61	=61	=61	=61	=61	=61	=61	=61	=61	=61	=61	=61	=61	=61	=61	=61
.	.	.	.	.	.	.	.	.	.	.	.	8qqf/	.	.	.
*	*	*	*	*	*	*	*2\right	*	*	*	*	*	*	*	*
!	!	!	!	!	!	!	!	!LO:DY:t=po&colon;	!	!	!	!	!	!	!
8r	.	.	8r	.	8r	.	2ee-X\	p	2ryy	2ryy	2ryy	4ee-X\	e-	2ryy	2ryy
!	!	!	!	!LO:DY:t=piano	!	!	!	!	!	!	!	!	!	!	!
8c\L	-	p	8c\L	p	8g/L	p	.	.	.	.	.	.	.	.	.
8A\	5	.	8A\	.	8cc\	.	.	.	.	.	.	4ee-\	-go	.	.
8G\J	6	.	8G\J	.	8b-\J	.	.	.	.	.	.	.	.	.	.
=62	=62	=62	=62	=62	=62	=62	=62	=62	=62	=62	=62	=62	=62	=62	=62
.	.	.	.	.	.	.	8qqee-/	.	.	.	.	8qqee-/	.	.	.
8F#X\L	6	.	8F#X\L	.	8a/L	.	4.dd\	.	2ryy	2ryy	2ryy	4.dd\	ser-	2ryy	2ryy
8A\J	.	.	8A\	.	16f#X/L	.	.	.	.	.	.	.	.	.	.
.	.	.	.	.	16g/JJ	.	.	.	.	.	.	.	.	.	.
!LO:LB:g=original	!	!	!	!	!	!	!	!	!	!	!	!	!	!	!
8F#X\L	5	.	8F#X\	.	8a/L	.	.	.	.	.	.	.	.	.	.
8D\J	.	.	8D\J	.	8f#X/J	.	8cc\	.	.	.	.	8cc\	-vus	.	.
!	!	!	!	!	!	!	!	!	!	!	!	!LO:LB:g=original	!	!	!
=63	=63	=63	=63	=63	=63	=63	=63	=63	=63	=63	=63	=63	=63	=63	=63
8G\L	.	.	8G\L	.	2g/	.	(16b-\LL	.	2ryy	2ryy	2ryy	(16b-\LL	tu-	2ryy	2ryy
.	.	.	.	.	.	.	16cc\JJ	.	.	.	.	16cc\JJ)	.	.	.
8A\	.	.	8A\	.	.	.	4dd\)	.	.	.	.	4dd\	-us	.	.
8B-\	6	.	8B-\	.	.	.	.	.	.	.	.	.	.	.	.
8c\J	.	.	8c\J	.	.	.	8ee-\	.	.	.	.	16ee-\	e-	.	.
.	.	.	.	.	.	.	.	.	.	.	.	16ee-\	-go	.	.
=64	=64	=64	=64	=64	=64	=64	=64	=64	=64	=64	=64	=64	=64	=64	=64
.	.	.	.	.	.	.	8qqee-/	.	.	.	.	8qqee-/	.	.	.
8F#X\L	6	.	8F#X\L	.	8a/L	.	4.dd\	.	2ryy	2ryy	2ryy	4.dd\	ser-	2ryy	2ryy
8A\	.	.	8A\	.	16f#X/L	.	.	.	.	.	.	.	.	.	.
.	.	.	.	.	16g/JJ	.	.	.	.	.	.	.	.	.	.
8F#X\	5	.	8F#X\	.	8a/L	.	.	.	.	.	.	.	.	.	.
8D\J	.	.	8D\J	.	8f#X/J	.	8ccc\	.	.	.	.	8cc\	-vus	.	.
=65	=65	=65	=65	=65	=65	=65	=65	=65	=65	=65	=65	=65	=65	=65	=65
!LO:TX:t=P:problem:mixed beam	!	!	!	!	!	!	!	!	!	!	!	!	!	!	!
8G\L	9	.	8G\L	.	(16d/LL	.	(16bb-\LL	.	2ryy	2ryy	2ryy	(16b-\LL	tu-	2ryy	2ryy
.	.	.	.	.	16c/J)	.	16aa\J)	.	.	.	.	16a\JJ)	.	.	.
8GG/|	8	.	8GG/|	.	8B-/J	.	8gg\J	.	.	.	.	8g/	-us	.	.
8BB-/|	.	.	8BB-/|	.	4r	.	4r	.	.	.	.	4r	.	.	.
8D/J|	.	.	8D/J|	.	.	.	.	.	.	.	.	.	.	.	.
!	!	!	!LO:LB:g=original	!	!	!	!	!	!	!	!	!	!	!	!
=66	=66	=66	=66	=66	=66	=66	=66	=66	=66	=66	=66	=66	=66	=66	=66
*	*	*	*	*	*	*	*	*	*	*	*	*2\right	*	*	*
8Fn\L	6 n4r -3	.	8Fn\L	.	8a-X/L	.	(32bn\LLL	.	2ryy	2ryy	2ryy	2bn\	et	2ryy	2ryy
.	.	.	.	.	.	.	32cc\	.	.	.	.	.	.	.	.
.	.	.	.	.	.	.	32dd\	.	.	.	.	.	.	.	.
.	.	.	.	.	.	.	32cc\JJJ)	.	.	.	.	.	.	.	.
8F\	.	.	8F\	.	8a-/	.	4.bn\	.	.	.	.	.	.	.	.
8F\	.	.	8F\	.	8a-/	.	.	.	.	.	.	.	.	.	.
8F\J	.	.	8F\J	.	8a-/J	.	.	.	.	.	.	.	.	.	.
!	!	!	!	!	!LO:LB:g=original	!	!	!	!	!	!	!	!	!	!
=67	=67	=67	=67	=67	=67	=67	=67	=67	=67	=67	=67	=67	=67	=67	=67
8E-\L	6	.	8E-\L	.	8g/L	.	(32cc\LLL	.	2ryy	2ryy	2ryy	8.cc\	Fi-	2ryy	2ryy
.	.	.	.	.	.	.	32dd\	.	.	.	.	.	.	.	.
.	.	.	.	.	.	.	32ee-\	.	.	.	.	.	.	.	.
.	.	.	.	.	.	.	32dd\JJJ)	.	.	.	.	.	.	.	.
8E-\	.	.	8E-\	.	8g/	.	4.cc\	.	.	.	.	.	.	.	.
.	.	.	.	.	.	.	.	.	.	.	.	16cc\	-li-	.	.
8E-\	.	.	8E-\	.	8g/	.	.	.	.	.	.	8cc\	-us	.	.
8E-\J	.	.	8E-\J	.	8g/J	.	.	.	.	.	.	8cc\	an-	.	.
=68	=68	=68	=68	=68	=68	=68	=68	=68	=68	=68	=68	=68	=68	=68	=68
8BBn/L	6 5	.	8BBn/L	.	8g/L	.	(32dd\LLL	.	2ryy	2ryy	2ryy	4.dd\	-cil-	2ryy	2ryy
.	.	.	.	.	.	.	32ee-\	.	.	.	.	.	.	.	.
.	.	.	.	.	.	.	32ff\	.	.	.	.	.	.	.	.
.	.	.	.	.	.	.	32ee-\JJJ)	.	.	.	.	.	.	.	.
8BB/	.	.	8BB/	.	8g/	.	4.dd\	.	.	.	.	.	.	.	.
8BB/	.	.	8BB/	.	8g/	.	.	.	.	.	.	.	.	.	.
8BB/J	.	.	8BB/J	.	8g/J	.	.	.	.	.	.	16ee-\LL	-lae	.	.
.	.	.	.	.	.	.	.	.	.	.	.	16ff\JJ	.	.	.
=69	=69	=69	=69	=69	=69	=69	=69	=69	=69	=69	=69	=69	=69	=69	=69
4C/	.	.	4C/	.	(16cc\LL	.	(16ee-\LL	.	2ryy	2ryy	2ryy	(16ee-\LL	tu-	2ryy	2ryy
.	.	.	.	.	16dd\	.	16ff\	.	.	.	.	16dd\JJ)	.	.	.
.	.	.	.	.	16ee-\)	.	16gg\	.	.	.	.	8cc\	-ae	.	.
.	.	.	.	.	(16dd'\JJ	.	16ff'\JJ)	.	.	.	.	.	.	.	.
4r	.	.	4r	.	16cc'\LL	.	(16ee-'\LL	.	.	.	.	4r	.	.	.
.	.	.	.	.	16b-'\	.	16dd'\	.	.	.	.	.	.	.	.
.	.	.	.	.	16a'\	.	16cc'\	.	.	.	.	.	.	.	.
.	.	.	.	.	16g'\JJ)	.	16b-X'\JJ)	.	.	.	.	.	.	.	.
!	!	!	!	!	!	!	!LO:LB:g=original	!	!	!	!	!	!	!	!
=70	=70	=70	=70	=70	=70	=70	=70	=70	=70	=70	=70	=70	=70	=70	=70
8E-\L	4 2	.	8E-\L	.	8f/L	.	(32a/LLL	.	2ryy	2ryy	2ryy	2a\	et	2ryy	2ryy
.	.	.	.	.	.	.	32b-/	.	.	.	.	.	.	.	.
.	.	.	.	.	.	.	32cc/	.	.	.	.	.	.	.	.
.	.	.	.	.	.	.	32b-/JJJ)	.	.	.	.	.	.	.	.
8E-\	.	.	8E-\	.	8f/	.	4.a/	.	.	.	.	.	.	.	.
8E-\	.	.	8E-\	.	8f/	.	.	.	.	.	.	.	.	.	.
8E-\J	.	.	8E-\J	.	8f/J	.	.	.	.	.	.	.	.	.	.
=71	=71	=71	=71	=71	=71	=71	=71	=71	=71	=71	=71	=71	=71	=71	=71
8D/L	6	.	8D/L	.	8f/L	.	(32b-\LLL	.	2ryy	2ryy	2ryy	8.b-X\	fi-	2ryy	2ryy
.	.	.	.	.	.	.	32cc\	.	.	.	.	.	.	.	.
.	.	.	.	.	.	.	32dd\	.	.	.	.	.	.	.	.
.	.	.	.	.	.	.	32cc\JJJ)	.	.	.	.	.	.	.	.
8D/	.	.	8D/	.	8f/	.	4.b-\	.	.	.	.	.	.	.	.
.	.	.	.	.	.	.	.	.	.	.	.	16b-\	-li-	.	.
8D/	.	.	8D/	.	8f/	.	.	.	.	.	.	8b-\	-us	.	.
8D/J	.	.	8D/J	.	8f/J	.	.	.	.	.	.	8b-\	an-	.	.
!	!	!	!	!	!	!	!	!	!	!	!	!LO:LB:g=original	!	!	!
=72	=72	=72	=72	=72	=72	=72	=72	=72	=72	=72	=72	=72	=72	=72	=72
8AA/L	6 5	.	8AA/L	.	8f/L	.	(32cc\LLL	.	2ryy	2ryy	2ryy	4.cc\	-cil-	2ryy	2ryy
.	.	.	.	.	.	.	32dd\	.	.	.	.	.	.	.	.
.	.	.	.	.	.	.	32ee-\	.	.	.	.	.	.	.	.
.	.	.	.	.	.	.	32dd\JJJ)	.	.	.	.	.	.	.	.
8AA/	.	.	8AA/	.	8f/	.	4.cc\	.	.	.	.	.	.	.	.
8AA/	.	.	8AA/	.	8f/	.	.	.	.	.	.	.	.	.	.
8AA/J	.	.	8AA/J	.	8f/J	.	.	.	.	.	.	16dd\LL	-lae	.	.
.	.	.	.	.	.	.	.	.	.	.	.	16ee-\JJ	.	.	.
=73	=73	=73	=73	=73	=73	=73	=73	=73	=73	=73	=73	=73	=73	=73	=73
4BB-/	.	.	4BB-/	.	(16b-\LL	.	(16dd\LL	.	2ryy	2ryy	2ryy	(16dd\LL	tu-	2ryy	2ryy
.	.	.	.	.	16cc\	.	16ee-\	.	.	.	.	16cc\JJ)	.	.	.
.	.	.	.	.	16dd\)	.	16ff\)	.	.	.	.	8b-\	-ae	.	.
.	.	.	.	.	16ee-\JJ|	.	16gg\JJ|	.	.	.	.	.	.	.	.
4r	.	.	4r	.	(16dd\LL	.	(16ff\LL	.	.	.	.	4r	.	.	.
.	.	.	.	.	16ee-\	.	16gg\	.	.	.	.	.	.	.	.
.	.	.	.	.	16ff\)	.	16aa-X\)	.	.	.	.	.	.	.	.
.	.	.	.	.	16gg\JJ|	.	16bb-\JJ|	.	.	.	.	.	.	.	.
!LO:LB:g=original	!	!	!	!	!	!	!	!	!	!	!	!	!	!	!
=74	=74	=74	=74	=74	=74	=74	=74	=74	=74	=74	=74	=74	=74	=74	=74
8BB-/L	-7r	.	8BB-/L	.	16ff\LL|	.	16aa-X\LL|	.	2ryy	2ryy	2ryy	8r	.	2ryy	2ryy
.	.	.	.	.	(16ff'\	.	(16aa-'\	.	.	.	.	.	.	.	.
8BB-/	.	.	8BB-/	.	16ff'\	.	16aa-'\	.	.	.	.	16ff\	di-	.	.
.	.	.	.	.	16ff'\JJ	.	16aa-'\JJ	.	.	.	.	16dd\	-ru-	.	.
8BB-/	.	.	8BB-/	.	16ff'\LL	.	16aa-'\LL	.	.	.	.	8b-\	-pis-	.	.
.	.	.	.	.	16ff'\	.	16aa-'\	.	.	.	.	.	.	.	.
8BB-/J	.	.	8BB-/J	.	16ff'\	.	16aa-'\	.	.	.	.	8a-X\	-ti	.	.
.	.	.	.	.	16ff'\JJ)	.	16aa-'\JJ)	.	.	.	.	.	.	.	.
=75	=75	=75	=75	=75	=75	=75	=75	=75	=75	=75	=75	=75	=75	=75	=75
8BB-/L	6 4	.	8BB-/L	.	16ee-\LL|	.	16gg\LL|	.	2ryy	2ryy	2ryy	8.g/	vin-	2ryy	2ryy
.	.	.	.	.	(16ee-'\	.	(16gg'\	.	.	.	.	.	.	.	.
8BB-/	.	.	8BB-/	.	16ee-'\	.	16gg'\	.	.	.	.	.	.	.	.
.	.	.	.	.	16ee-'\JJ	.	16gg'\JJ	.	.	.	.	16g/	-cu-	.	.
8BB-/	.	.	8BB-/	.	16ee-'\LL	.	16gg'\LL	.	.	.	.	4g/	-la	.	.
.	.	.	.	.	16ee-'\	.	16gg'\	.	.	.	.	.	.	.	.
8BB-/J	.	.	8BB-/J	.	16ee-'\	.	16gg'\	.	.	.	.	.	.	.	.
.	.	.	.	.	16ee-'\JJ)	.	16gg'\JJ)	.	.	.	.	.	.	.	.
=76	=76	=76	=76	=76	=76	=76	=76	=76	=76	=76	=76	=76	=76	=76	=76
*	*	*	*	*	*	*	*	*	*	*	*	*	*ij	*	*
8BB-/L	n7r 4 2	.	8BB-/L	.	16cc\LL|	.	16aan\LL|	.	2ryy	2ryy	2ryy	8.an\	vin-	2ryy	2ryy
.	.	.	.	.	(16cc'\	.	(16aa'\	.	.	.	.	.	.	.	.
8BB-/	.	.	8BB-/	.	16cc'\	.	16aa'\	.	.	.	.	.	.	.	.
.	.	.	.	.	16cc'\JJ	.	16aa'\JJ	.	.	.	.	16ee-\	-cu-	.	.
8BB-/	.	.	8BB-/	.	16cc'\LL	.	16aa'\LL	.	.	.	.	4ee-\	-la	.	.
*	*	*	*	*	*	*	*	*	*	*	*	*	*Xij	*	*
.	.	.	.	.	16cc'\	.	16aa'\	.	.	.	.	.	.	.	.
8BB-/J	.	.	8BB-/J	.	16cc'\	.	16aa'\	.	.	.	.	.	.	.	.
.	.	.	.	.	16cc'\JJ)	.	16aa'\JJ)	.	.	.	.	.	.	.	.
=77	=77	=77	=77	=77	=77	=77	=77	=77	=77	=77	=77	=77	=77	=77	=77
8BB-/L	8 5 3	.	8BB-/L	.	(16dd\LL	.	(16bb-\LL	.	2ryy	2ryy	2ryy	(16dd\LL	me-	2ryy	2ryy
.	.	.	.	.	16cc\)	.	16aa\)	.	.	.	.	16cc\JJ)	.	.	.
8BB-/	.	.	8BB-/	.	(16dd\	.	(16bb-\	.	.	.	.	8b-\	-a	.	.
.	.	.	.	.	16cc\JJ)	.	16aa\JJ)	.	.	.	.	.	.	.	.
8BB-/	.	.	8BB-/	.	(16dd\LL	.	(16bb-\LL	.	.	.	.	4r	.	.	.
.	.	.	.	.	16cc\)	.	16aa\)	.	.	.	.	.	.	.	.
8AA/J	.	.	8AA/J	.	(16dd\	.	(16bb-\	.	.	.	.	.	.	.	.
.	.	.	.	.	16cc\JJ)	.	16aa\JJ)	.	.	.	.	.	.	.	.
!	!	!	!	!	!LO:LB:g=original	!	!	!	!	!	!	!	!	!	!
=78	=78	=78	=78	=78	=78	=78	=78	=78	=78	=78	=78	=78	=78	=78	=78
4GG/	.	.	4GG/	.	4dd\	.	4bb-\	.	2ryy	2ryy	2ryy	8r	.	2ryy	2ryy
.	.	.	.	.	.	.	.	.	.	.	.	8bb-\	ti-	.	.
4r	.	.	4r	.	4r	.	4r	.	.	.	.	8gg\	-bi	.	.
.	.	.	.	.	.	.	.	.	.	.	.	8een\	sa-	.	.
!	!	!	!LO:LB:g=original	!	!	!	!	!	!	!	!	!	!	!	!
=79	=79	=79	=79	=79	=79	=79	=79	=79	=79	=79	=79	=79	=79	=79	=79
8r	.	.	8r	.	8r	.	8r	.	2ryy	2ryy	2ryy	8.cc#X\	-cri-	2ryy	2ryy
8A\L	#	.	8A\L	.	8a/L	.	(8cc#X\L	.	.	.	.	.	.	.	.
.	.	.	.	.	.	.	.	.	.	.	.	16cc#\	-fi-	.	.
!	!	!	!	!	!	!	!	!	!	!	!	!LO:LB:g=original	!	!	!
8F\	6	.	8F\	.	8a/	.	8dd\	.	.	.	.	8dd\	-ca-	.	.
8C#X\J	6	.	8C#X\J	.	8a/J	.	8een\J)|	.	.	.	.	8een\	-bo	.	.
=80	=80	=80	=80	=80	=80	=80	=80	=80	=80	=80	=80	=80	=80	=80	=80
*	*	*	*	*	*2\right	*	*	*	*	*	*	*	*	*	*
8D/L	.	.	8D/L	.	2dd\	.	2ff\	.	2ryy	2ryy	2ryy	8.ff\	hos-	2ryy	2ryy
8GG#X/	7 5	.	8GG#X/	.	.	.	.	.	.	.	.	.	.	.	.
.	.	.	.	.	.	.	.	.	.	.	.	16ff\	-ti-	.	.
8GG#/	.	.	8GG#/	.	.	.	.	.	.	.	.	4ff\	-am	.	.
8GG#/J	.	.	8GG#/J	.	.	.	.	.	.	.	.	.	.	.	.
=81	=81	=81	=81	=81	=81	=81	=81	=81	=81	=81	=81	=81	=81	=81	=81
.	.	.	.	.	.	.	8qqff/	.	.	.	.	.	.	.	.
4AA/	#	.	4AA/	.	4cc#X\	.	4een\	.	2ryy	2ryy	2ryy	8een\	lau-	2ryy	2ryy
.	.	.	.	.	.	.	.	.	.	.	.	8a\	-dis	.	.
4r	.	.	4r	.	4r	.	4r	.	.	.	.	8r	.	.	.
.	.	.	.	.	.	.	.	.	.	.	.	8a\	et	.	.
=82	=82	=82	=82	=82	=82	=82	=82	=82	=82	=82	=82	=82	=82	=82	=82
8Gn\L	.	.	8Gn\L	.	[4dd\	.	(32bb-\LLL	.	2ryy	2ryy	2ryy	4b-\	No-	2ryy	2ryy
.	.	.	.	.	.	.	32ccc\	.	.	.	.	.	.	.	.
.	.	.	.	.	.	.	32ddd\	.	.	.	.	.	.	.	.
.	.	.	.	.	.	.	32ccc\JJJ)	.	.	.	.	.	.	.	.
8G\	.	.	8G\	.	.	.	4.bb-\	.	.	.	.	.	.	.	.
8G\	.	.	8G\	.	32dd\LLL]	.	.	.	.	.	.	[4gg\	.	.	.
.	.	.	.	.	(32ccn\	.	.	.	.	.	.	.	.	.	.
.	.	.	.	.	32b-\	.	.	.	.	.	.	.	.	.	.
.	.	.	.	.	32cc\JJ)	.	.	.	.	.	.	.	.	.	.
8F\J	.	.	8F\J	.	8dd\J|	.	.	.	.	.	.	.	.	.	.
!	!	!	!	!	!	!	!LO:LB:g=original	!	!	!	!	!	!	!	!
=83	=83	=83	=83	=83	=83	=83	=83	=83	=83	=83	=83	=83	=83	=83	=83
8En\L	6 5	.	8En\L	.	8cc\L	.	8bb-\L	.	2ryy	2ryy	2ryy	16gg\LL]	.	2ryy	2ryy
.	.	.	.	.	.	.	.	.	.	.	.	16ff\	.	.	.
8E\	.	.	8E\	.	8cc\	.	8bb-\	.	.	.	.	16een\	.	.	.
.	.	.	.	.	.	.	.	.	.	.	.	16dd\JJ	.	.	.
8E\	.	.	8E\	.	8cc\	.	8bb-\	.	.	.	.	16cc\LL	.	.	.
.	.	.	.	.	.	.	.	.	.	.	.	16een\	.	.	.
8E\J	.	.	8E\J	.	8cc\J	.	8bb-\J	.	.	.	.	16gg\	.	.	.
.	.	.	.	.	.	.	.	.	.	.	.	16b-\JJ	.	.	.
=84	=84	=84	=84	=84	=84	=84	=84	=84	=84	=84	=84	=84	=84	=84	=84
8F\L	9	.	8F\L	.	[4cc\	.	(32aa\LLL	.	2ryy	2ryy	2ryy	4a\	.	2ryy	2ryy
.	.	.	.	.	.	.	32bb-\	.	.	.	.	.	.	.	.
.	.	.	.	.	.	.	32ccc\	.	.	.	.	.	.	.	.
.	.	.	.	.	.	.	32bb-\JJJ)	.	.	.	.	.	.	.	.
8F\	.	.	8F\	.	.	.	4.aa\	.	.	.	.	.	.	.	.
8F\	8	.	8F\	.	32cc\LLL]	.	.	.	.	.	.	[4ff\	.	.	.
.	.	.	.	.	(32b-\	.	.	.	.	.	.	.	.	.	.
.	.	.	.	.	32a\	.	.	.	.	.	.	.	.	.	.
.	.	.	.	.	32b-\JJ)	.	.	.	.	.	.	.	.	.	.
8En\J	.	.	8En\J	.	8cc\J|	.	.	.	.	.	.	.	.	.	.
=85	=85	=85	=85	=85	=85	=85	=85	=85	=85	=85	=85	=85	=85	=85	=85
8D/L	6 5	.	8D\L	.	8b-/L	.	8aa\L	.	2ryy	2ryy	2ryy	16ff\LL]	.	2ryy	2ryy
.	.	.	.	.	.	.	.	.	.	.	.	16een\	.	.	.
8D/	.	.	8D\	.	8b-/	.	8aa\	.	.	.	.	16dd\	.	.	.
.	.	.	.	.	.	.	.	.	.	.	.	16cc\JJ	.	.	.
8D/	.	.	8D\	.	8b-/	.	8aa\	.	.	.	.	16b-\LL	.	.	.
.	.	.	.	.	.	.	.	.	.	.	.	16dd\	.	.	.
8D/J	.	.	8D\J	.	8b-/J	.	8aa\J	.	.	.	.	16ff\	.	.	.
.	.	.	.	.	.	.	.	.	.	.	.	16a\JJ	.	.	.
!LO:LB:g=original	!	!	!	!	!	!	!	!	!	!	!	!	!	!	!
=86	=86	=86	=86	=86	=86	=86	=86	=86	=86	=86	=86	=86	=86	=86	=86
8En\L	9	.	8En\L	.	[4b-/	.	(32gg\LLL	.	2ryy	2ryy	2ryy	4g/	.	2ryy	2ryy
.	.	.	.	.	.	.	32aa\	.	.	.	.	.	.	.	.
.	.	.	.	.	.	.	32bb-\	.	.	.	.	.	.	.	.
.	.	.	.	.	.	.	32aa\JJJ)	.	.	.	.	.	.	.	.
8E\	.	.	8E\	.	.	.	4.gg\	.	.	.	.	.	.	.	.
8E\	8	.	8E\	.	32b-/LLL]	.	.	.	.	.	.	[4een\	.	.	.
.	.	.	.	.	(32a/	.	.	.	.	.	.	.	.	.	.
.	.	.	.	.	32g/	.	.	.	.	.	.	.	.	.	.
.	.	.	.	.	32a/JJ)	.	.	.	.	.	.	.	.	.	.
8D\J	.	.	8D\J	.	8b-/J|	.	.	.	.	.	.	.	.	.	.
=87	=87	=87	=87	=87	=87	=87	=87	=87	=87	=87	=87	=87	=87	=87	=87
8C#X/L	6 5	.	8C#X/L	.	8a/L	.	8gg\L	.	2ryy	2ryy	2ryy	16ee\LL]	.	2ryy	2ryy
.	.	.	.	.	.	.	.	.	.	.	.	16dd\	.	.	.
8C#/	.	.	8C#/	.	8a/	.	8gg\	.	.	.	.	16cc#X\	.	.	.
.	.	.	.	.	.	.	.	.	.	.	.	16b-\JJ	.	.	.
!	!	!	!	!	!	!	!	!	!	!	!	!LO:LB:g=original	!	!	!
8C#/	.	.	8C#/	.	8a/	.	8gg\	.	.	.	.	16a\LL	.	.	.
.	.	.	.	.	.	.	.	.	.	.	.	16cc#X\JJ	.	.	.
8C#/J	.	.	8C#/J	.	8a/J	.	8gg\J	.	.	.	.	16een\LL	-men	.	.
.	.	.	.	.	.	.	.	.	.	.	.	16g\JJ	.	.	.
=88	=88	=88	=88	=88	=88	=88	=88	=88	=88	=88	=88	=88	=88	=88	=88
8D\L	.	.	8D\L	.	(32dd\LLL	.	4ff\	.	2ryy	2ryy	2ryy	8.f/	Do-	2ryy	2ryy
.	.	.	.	.	32een\	.	.	.	.	.	.	.	.	.	.
.	.	.	.	.	32ff\	.	.	.	.	.	.	.	.	.	.
.	.	.	.	.	32ee\JJJ)	.	.	.	.	.	.	.	.	.	.
8D\	.	.	8D\	.	4.dd\	.	.	.	.	.	.	.	.	.	.
.	.	.	.	.	.	.	.	.	.	.	.	16f/	-mi-	.	.
8En\	7	.	8En\	.	.	.	(32gg\LLL	.	.	.	.	4g/	-ni	.	.
.	.	.	.	.	.	.	32ff\	.	.	.	.	.	.	.	.
.	.	.	.	.	.	.	32een\	.	.	.	.	.	.	.	.
.	.	.	.	.	.	.	32ff\JJ)	.	.	.	.	.	.	.	.
8E\J	.	.	8E\J	.	.	.	8gg\J	.	.	.	.	.	.	.	.
=89	=89	=89	=89	=89	=89	=89	=89	=89	=89	=89	=89	=89	=89	=89	=89
8F\L	6	.	8F\L	.	(32dd\LLL	.	4aa\	.	2ryy	2ryy	2ryy	4a\	in-	2ryy	2ryy
.	.	.	.	.	32een\	.	.	.	.	.	.	.	.	.	.
.	.	.	.	.	32ff\	.	.	.	.	.	.	.	.	.	.
.	.	.	.	.	32ee\JJJ)	.	.	.	.	.	.	.	.	.	.
8F\	.	.	8F\	.	4.dd\	.	.	.	.	.	.	.	.	.	.
8G\	.	.	8G\	.	.	.	(32bb-\LLL	.	.	.	.	4b-\	-vo-	.	.
.	.	.	.	.	.	.	32aa\	.	.	.	.	.	.	.	.
.	.	.	.	.	.	.	32gg\	.	.	.	.	.	.	.	.
.	.	.	.	.	.	.	32aa\JJ)	.	.	.	.	.	.	.	.
8G\J	.	.	8G\J	.	.	.	8bb-\J	.	.	.	.	.	.	.	.
!	!	!	!	!	!LO:LB:g=original	!	!	!	!	!	!	!	!	!	!
=90	=90	=90	=90	=90	=90	=90	=90	=90	=90	=90	=90	=90	=90	=90	=90
!LO:TX:t=P:problem:mixed beam	!	!	!LO:TX:t=P:problem:mixed beam	!	!	!	!	!	!	!	!	!	!	!	!
8A\L	6 4	.	8A\L	.	8dd\L	.	8ff\L	.	2ryy	2ryy	2ryy	4dd\	-ca-	2ryy	2ryy
8A\	.	.	8A\	.	8dd\	.	8ff\	.	.	.	.	.	.	.	.
8AA/	5 #	.	8AA/	.	8cc#X\	.	8een\	.	.	.	.	4cc#Xt\	.	.	.
8AA/J	.	.	8AA/J	.	8cc#\J	.	8ee\J	.	.	.	.	.	.	.	.
!	!	!	!LO:LB:g=original	!	!	!	!	!	!	!	!	!	!	!	!
=91	=91	=91	=91	=91	=91	=91	=91	=91	=91	=91	=91	=91	=91	=91	=91
8D\L	.	.	8D\L	.	(32dd\LLL	f	(32dd\LLL	f	2ryy	2ryy	2ryy	4dd\	-bo	2ryy	2ryy
.	.	.	.	.	32een\	.	32een\	.	.	.	.	.	.	.	.
.	.	f	.	.	32ff\	.	32ff\	.	.	.	.	.	.	.	.
.	.	.	.	.	32ee\JJ)	.	32ee\JJ)	.	.	.	.	.	.	.	.
!	!	!	!	!LO:DY:t=forte	!	!	!	!	!	!	!	!	!	!	!
8d\J	.	.	8d\J	f	8.dd\J	.	8.dd\J	.	.	.	.	.	.	.	.
8cn\L	2	.	8cn\L	.	.	.	.	.	.	.	.	4r	.	.	.
.	.	.	.	.	16a\LL	.	16a\LL	.	.	.	.	.	.	.	.
8c\J	.	.	8c\J	.	16bn\	.	16bn\	.	.	.	.	.	.	.	.
.	.	.	.	.	16cc#X\JJ	.	16cc#X\JJ	.	.	.	.	.	.	.	.
=92	=92	=92	=92	=92	=92	=92	=92	=92	=92	=92	=92	=92	=92	=92	=92
!	!	!	!	!	!	!	!	!	!	!	!	!LO:TX:t=9.	!	!	!
8B-\L	5	.	8B-\L	.	(32dd\LLL	.	(32dd\LLL	.	2ryy	2ryy	2ryy	0r	.	2ryy	2ryy
.	.	.	.	.	32een\	.	32een\	.	.	.	.	.	.	.	.
.	.	.	.	.	32ff\	.	32ff\	.	.	.	.	.	.	.	.
.	.	.	.	.	32ee\JJJ)	.	32ee\JJJ)	.	.	.	.	.	.	.	.
16A\L	.	.	16A\L	.	4dd\	.	4dd\	.	.	.	.	.	.	.	.
16G\JJ	.	.	16G\JJ	.	.	.	.	.	.	.	.	.	.	.	.
8F\L	6	.	8F\L	.	.	.	.	.	.	.	.	.	.	.	.
8F\J	.	.	8F\J	.	8dd\	.	8dd\	.	.	.	.	.	.	.	.
=93	=93	=93	=93	=93	=93	=93	=93	=93	=93	=93	=93	=93	=93	=93	=93
8G\L	n6r	.	8G\L	.	(32een\KLL	.	(32een\KLL	.	2ryy	2ryy	2ryy	.	.	2ryy	2ryy
.	.	.	.	.	16.gg\JJ)	.	16.gg\JJ)	.	.	.	.	.	.	.	.
8G\	.	.	8G\	.	(32ff\KLL	.	(32ff\KLL	.	.	.	.	.	.	.	.
.	.	.	.	.	16.een\JJ)	.	16.een\JJ)	.	.	.	.	.	.	.	.
8C#X\	7	.	8C#X\	.	(32bb-\KLL	.	(32bb-\KLL	.	.	.	.	.	.	.	.
.	.	.	.	.	16.gg\JJ)	.	16.gg\JJ)	.	.	.	.	.	.	.	.
8C#\J	6	.	8C#\J	.	(32ff\KLL	.	(32ff\KLL	.	.	.	.	.	.	.	.
.	.	.	.	.	16.een\JJ)	.	16.een\JJ)	.	.	.	.	.	.	.	.
=94	=94	=94	=94	=94	=94	=94	=94	=94	=94	=94	=94	=94	=94	=94	=94
8D\L	.	.	8D\L	.	(32ff\LLL	.	(32ff\LLL	.	2ryy	2ryy	2ryy	.	.	2ryy	2ryy
.	.	.	.	.	32een\JJ	.	32een\JJ	.	.	.	.	.	.	.	.
.	.	.	.	.	8.dd\J)	.	8.dd\J)	.	.	.	.	.	.	.	.
8D\	.	.	8D\	.	.	.	.	.	.	.	.	.	.	.	.
!	!	!	!	!	!	!	!LO:LB:g=original	!	!	!	!	!	!	!	!
8F\	6	.	8F\	.	[4aa\	.	[4aa\	.	.	.	.	.	.	.	.
8F\J	.	.	8F\J	.	.	.	.	.	.	.	.	.	.	.	.
=95	=95	=95	=95	=95	=95	=95	=95	=95	=95	=95	=95	=95	=95	=95	=95
4.G\	9	.	4.G\	.	8aa\L]	.	8aa\L]	.	2ryy	2ryy	2ryy	.	.	2ryy	2ryy
.	.	.	.	.	(32bb-\KL	.	(32bb-\KL	.	.	.	.	.	.	.	.
.	.	.	.	.	16.aa\JJ)	.	16.aa\JJ)	.	.	.	.	.	.	.	.
.	8	.	.	.	(32gg\KLL	.	(32gg\KLL	.	.	.	.	.	.	.	.
.	.	.	.	.	16.ff\JJ)	.	16.ff\JJ)	.	.	.	.	.	.	.	.
8G#X\	6 5	.	8G#X\	.	(32een\KLL	.	(32een\KLL	.	.	.	.	.	.	.	.
.	.	.	.	.	16.dd\JJ)	.	16.dd\JJ)	.	.	.	.	.	.	.	.
=96	=96	=96	=96	=96	=96	=96	=96	=96	=96	=96	=96	=96	=96	=96	=96
!LO:SIC:v:t=custos A	!	!	!	!	!	!	!	!	!	!	!	!	!	!	!
4AA/	#	.	4AA/	.	(16cc#X\LL	.	(16cc#X\LL	.	2ryy	2ryy	2ryy	0r	.	2ryy	2ryy
.	.	.	.	.	16bn\J	.	16bn\J	.	.	.	.	.	.	.	.
.	.	.	.	.	8a\J)	.	8a\J)	.	.	.	.	.	.	.	.
!LO:LB:g=original	!	!	!	!	!	!	!	!	!	!	!	!	!	!	!
[4A\	.	.	[4A\	.	8r	.	8r	.	.	.	.	.	.	.	.
.	.	.	.	.	8aa\	.	8aa\	.	.	.	.	.	.	.	.
=97	=97	=97	=97	=97	=97	=97	=97	=97	=97	=97	=97	=97	=97	=97	=97
.	.	.	.	.	8qqaa/	.	8qqaa/	.	.	.	.	.	.	.	.
8A\L]	2	.	8A\L]	.	4.bb-X\	.	4.bb-\	.	2ryy	2ryy	2ryy	.	.	2ryy	2ryy
16G\L	.	.	16G\L	.	.	.	.	.	.	.	.	.	.	.	.
16F\JJ	.	.	16F\JJ	.	.	.	.	.	.	.	.	.	.	.	.
[4G\	4| 3	.	[4G\	.	.	.	.	.	.	.	.	.	.	.	.
.	.	.	.	.	8cc#X\	.	8cc#X\	.	.	.	.	.	.	.	.
!	!	!	!	!	!LO:LB:g=original	!	!	!	!	!	!	!	!	!	!
=98	=98	=98	=98	=98	=98	=98	=98	=98	=98	=98	=98	=98	=98	=98	=98
!	!	!	!	!	!LO:SIC:v:t=dotyczy przednutki:s=8qqcc#/	!	!LO:SIC:v:t=dotyczy przednutki:s=8qqcc#/	!	!	!	!	!	!	!	!
.	.	.	.	.	8qqcc/	.	8qqcc/	.	.	.	.	.	.	.	.
8G\L]	5 2	.	8G\L]	.	4.dd\	.	4.dd\	.	2ryy	2ryy	2ryy	.	.	2ryy	2ryy
16F\L	.	.	16F\L	.	.	.	.	.	.	.	.	.	.	.	.
16En\JJ	.	.	16En\JJ	.	.	.	.	.	.	.	.	.	.	.	.
8F\L	6	.	8F\L	.	.	.	.	.	.	.	.	.	.	.	.
8F#X\J	5	.	8F#X\J	.	8a/	.	8a/	.	.	.	.	.	.	.	.
=99	=99	=99	=99	=99	=99	=99	=99	=99	=99	=99	=99	=99	=99	=99	=99
!LO:TX:t=P:problem:mixed beam	!	!	!LO:TX:t=P:problem:mixed beam	!	!	!	!	!	!	!	!	!	!	!	!
8G\L	.	.	8G\L	.	(32b-\KLL	.	(32b-\KLL	.	2ryy	2ryy	2ryy	.	.	2ryy	2ryy
.	.	.	.	.	16.bb-\JJ)	.	16.bb-\JJ)	.	.	.	.	.	.	.	.
8B-\	6	.	8B-\	.	(32aa\KLL	.	(32aa\KLL	.	.	.	.	.	.	.	.
.	.	.	.	.	16.gg\JJ)	.	16.gg\JJ)	.	.	.	.	.	.	.	.
8A\	6 4	.	8A\	.	(32ff\KLL	.	(32ff\KLL	.	.	.	.	.	.	.	.
.	.	.	.	.	16.een\JJ)	.	16.een\JJ)	.	.	.	.	.	.	.	.
8AA/J	7 #	.	8AA/J	.	(32dd\KLL	.	(32dd\KLL	.	.	.	.	.	.	.	.
.	.	.	.	.	16.cc#X\JJ)	.	16.cc#X\JJ)	.	.	.	.	.	.	.	.
=100	=100	=100	=100	=100	=100	=100	=100	=100	=100	=100	=100	=100	=100	=100	=100
8.D\L	.	.	8.D\L	.	8dd\L|	.	8dd\L|	.	2ryy	2ryy	2ryy	2r	.	2ryy	2ryy
.	.	.	.	.	8a\J|	.	8a\J|	.	.	.	.	.	.	.	.
16G\Jk	.	.	16G\Jk	.	.	.	.	.	.	.	.	.	.	.	.
!	!	!LO:DY:t=fortiſs&colon;	!	!LO:DY:t=fortiſs.	!	!	!	!	!	!	!	!	!	!	!
16F\LL|	.	ff	16F\LL|	ff	4d/	.	4d/	.	.	.	.	.	.	.	.
16E-X\|	.	.	16E-X\|	.	.	.	.	.	.	.	.	.	.	.	.
16D\|	.	.	16D\|	.	.	.	.	.	.	.	.	.	.	.	.
16C\JJ|	.	.	16C\JJ|	.	.	.	.	.	.	.	.	.	.	.	.
=101	=101	=101	=101	=101	=101	=101	=101	=101	=101	=101	=101	=101	=101	=101	=101
!LO:TX:t=P:problem:mixed beam	!	!	!LO:TX:t=P:problem:mixed beam	!	!	!	!	!	!	!	!	!	!	!	!
8BB-/L	.	.	8BB-/L	.	(32d/LLL	p	(32b-\LLL	p	2ryy	2ryy	2ryy	8r	.	2ryy	2ryy
.	.	.	.	.	32e-X/	.	32cc\	.	.	.	.	.	.	.	.
.	.	.	.	.	32f/	.	32dd\	.	.	.	.	.	.	.	.
.	.	.	.	.	32e-/JJ)	.	32cc\JJ)	.	.	.	.	.	.	.	.
!	!	!LO:DY:t=pia&colon;	!	!	!	!	!	!	!	!	!	!	!	!	!
8B-\	.	p	8B-\	p	8d/J	.	8.b-\J	.	.	.	.	16b-\	vo-	.	.
.	.	.	.	.	.	.	.	.	.	.	.	16b-\	-ta	.	.
8A\	4 2	.	8A\	.	8d/L	.	.	.	.	.	.	8b-\	me-	.	.
.	.	.	.	.	.	.	16f/LL	.	.	.	.	.	.	.	.
8A\J	.	.	8A\J	.	8d/J	.	16g/	.	.	.	.	8b-\	-a	.	.
.	.	.	.	.	.	.	16a/JJ	.	.	.	.	.	.	.	.
=102	=102	=102	=102	=102	=102	=102	=102	=102	=102	=102	=102	=102	=102	=102	=102
8G\L	5	.	8G\L	.	8.d/L	.	(32b-\LLL	.	2ryy	2ryy	2ryy	8.b-\	Do-	2ryy	2ryy
.	.	.	.	.	.	.	32cc\	.	.	.	.	.	.	.	.
.	.	.	.	.	.	.	32dd\	.	.	.	.	.	.	.	.
.	.	.	.	.	.	.	32cc\JJJ)	.	.	.	.	.	.	.	.
16F\L	.	.	16F\L	.	.	.	4b-\	.	.	.	.	.	.	.	.
16E-\JJ	.	.	16E-\JJ	.	16e-/k	.	.	.	.	.	.	16b-\	-mi-	.	.
8D\L	6	.	8D/L	.	8f/	.	.	.	.	.	.	4dd\	-no	.	.
8D\J	.	.	8D/J	.	8f/J	.	8bn\	.	.	.	.	.	.	.	.
=103	=103	=103	=103	=103	=103	=103	=103	=103	=103	=103	=103	=103	=103	=103	=103
!LO:TX:t=P:problem:mixed beam	!	!	!LO:TX:t=P:problem:mixed beam	!	!	!	!	!	!	!	!	!	!	!	!
8E-\L	6	.	8E-\L	.	8g/L	.	(32cc\KLL	.	2ryy	2ryy	2ryy	8cc\	red-	2ryy	2ryy
.	.	.	.	.	.	.	16.ee-\JJ)	.	.	.	.	.	.	.	.
8E-\	.	.	8E-\	.	8g/	.	(32dd\KLL	.	.	.	.	8cc\	-dam	.	.
.	.	.	.	.	.	.	16.cc\JJ)	.	.	.	.	.	.	.	.
8AA/	7	.	8AA/	.	8cc\	.	(32gg\KLL	.	.	.	.	8cc\	in	.	.
.	.	.	.	.	.	.	16.ee-\JJ)	.	.	.	.	.	.	.	.
8AA/J	6	.	8AA/J	.	8f/J	.	(32dd\KLL	.	.	.	.	(16dd\LL	con-	.	.
.	.	.	.	.	.	.	16.cc\JJ)	.	.	.	.	.	.	.	.
.	.	.	.	.	.	.	.	.	.	.	.	16ee-\JJ)	.	.	.
=104	=104	=104	=104	=104	=104	=104	=104	=104	=104	=104	=104	=104	=104	=104	=104
!	!	!	!	!	!	!	!	!	!	!	!	!LO:LB:g=original	!	!	!
8BB-/L	.	.	8BB-/L	.	8f/	.	(32dd\LLL	.	2ryy	2ryy	2ryy	8dd\	-spec-	2ryy	2ryy
.	.	.	.	.	.	.	32cc\JJ	.	.	.	.	.	.	.	.
.	.	.	.	.	.	.	8.b-\J)	.	.	.	.	.	.	.	.
8BB-/	.	.	8BB-/	.	4b-/	.	.	.	.	.	.	8b-\	-tu	.	.
8D/	6	.	8D/	.	.	.	[4ff\	.	.	.	.	8ff\	om-	.	.
8D/J	-5r	.	8D/J	.	8a-X/	.	.	.	.	.	.	8ff\	-nis	.	.
!	!	!	!	!	!	!	!LO:LB:g=original	!	!	!	!	!	!	!	!
=105	=105	=105	=105	=105	=105	=105	=105	=105	=105	=105	=105	=105	=105	=105	=105
4.E-\	9	.	4.E-\	.	8g/L	.	8ff\L]	.	2ryy	2ryy	2ryy	8ff\L	po-	2ryy	2ryy
.	.	.	.	.	8g/	.	(32gg\KL	.	.	.	.	(32gg\KL	.	.	.
.	.	.	.	.	.	.	16.ff\JJ)	.	.	.	.	16.ff\JJ)	.	.	.
.	8	.	.	.	8g/	.	(32ee-\KLL	.	.	.	.	(32ee-\KLL	.	.	.
.	.	.	.	.	.	.	16.dd\JJ)	.	.	.	.	16.dd\JJ)	.	.	.
8En\	6 5	.	8En\	.	8g/J	.	(32cc\KLL	.	.	.	.	16cc\	-pu-	.	.
.	.	.	.	.	.	.	16.b-\JJ)	.	.	.	.	.	.	.	.
.	.	.	.	.	.	.	.	.	.	.	.	16b-\	-li	.	.
!LO:LB:g=original	!	!	!	!	!	!	!	!	!	!	!	!	!	!	!
=106	=106	=106	=106	=106	=106	=106	=106	=106	=106	=106	=106	=106	=106	=106	=106
16F\LL|	.	.	16F\LL|	f	(16a\LL	.	(16a/LL	.	2ryy	2ryy	2ryy	(16a\LL	e-	2ryy	2ryy
16G\|	.	.	16G\|	.	16b-\	.	16g/J	.	.	.	.	16g\JJ)	.	.	.
16A\|	.	.	16A\|	.	16cc\)	.	8f/J)	.	.	.	.	8f/	-jus	.	.
16G\JJ|	.	f	16G\JJ|	.	16b-\JJ|	.	.	.	.	.	.	.	.	.	.
16F\LL|	.	.	16F\LL|	.	16a/LL	.	4r	.	.	.	.	4r	.	.	.
16E-X\|	.	.	16E-X\|	.	16g/	.	.	.	.	.	.	.	.	.	.
16D\|	.	.	16D\|	.	16f/	.	.	.	.	.	.	.	.	.	.
16C\JJ|	.	.	16C\JJ|	.	16e-/JJ	.	.	.	.	.	.	.	.	.	.
=107	=107	=107	=107	=107	=107	=107	=107	=107	=107	=107	=107	=107	=107	=107	=107
8D/L	6 -5	.	8D/L	.	8f/L	.	(32ff\LLL	.	2ryy	2ryy	2ryy	4b-\	in	2ryy	2ryy
.	.	.	.	.	.	.	32gg\	.	.	.	.	.	.	.	.
.	.	.	.	.	.	.	32aa-X\	.	.	.	.	.	.	.	.
.	.	.	.	.	.	.	32gg\JJJ)	.	.	.	.	.	.	.	.
8D/	.	p	8D/	p	8b-\	.	4.ff\	.	.	.	.	.	.	.	.
8D/	.	.	8D/	.	8b-\	.	.	.	.	.	.	16a-X\	a-	.	.
.	.	.	.	.	.	.	.	.	.	.	.	16a-\	-tri-	.	.
8D/J	.	.	8D/J	.	8b-\J	.	.	.	.	.	.	8a-\	-js	.	.
=108	=108	=108	=108	=108	=108	=108	=108	=108	=108	=108	=108	=108	=108	=108	=108
8E-\L	.	.	8E-\L	.	8b-\L	.	(32gg\LLL	.	2ryy	2ryy	2ryy	8.g\L	tu-	2ryy	2ryy
.	.	.	.	.	.	.	32aa-X\	.	.	.	.	.	.	.	.
.	.	.	.	.	.	.	32bb-\	.	.	.	.	.	.	.	.
.	.	.	.	.	.	.	32aa-\JJJ)	.	.	.	.	.	.	.	.
8E-\	.	.	8E-\	.	8b-\	.	4.gg\	.	.	.	.	.	.	.	.
.	.	.	.	.	.	.	.	.	.	.	.	16a-X\Jk	.	.	.
8E-\	.	.	8E-\	.	8b-\	.	.	.	.	.	.	4b-\	-is	.	.
8E-\J	.	.	8E-\J	.	8b-\J	.	.	.	.	.	.	.	.	.	.
=109	=109	=109	=109	=109	=109	=109	=109	=109	=109	=109	=109	=109	=109	=109	=109
8F\L	6 4	.	8F\L	.	8b-\L	.	(32dd\LLL	.	2ryy	2ryy	2ryy	4.b-\	do-	2ryy	2ryy
.	.	.	.	.	.	.	32ee-\	.	.	.	.	.	.	.	.
.	.	.	.	.	.	.	32ff\	.	.	.	.	.	.	.	.
.	.	.	.	.	.	.	32dd\JJJ)	.	.	.	.	.	.	.	.
8F\	.	.	8F\	.	8b-\	.	4.dd\	.	.	.	.	.	.	.	.
8F\	.	.	8F\	.	8b-\	.	.	.	.	.	.	.	.	.	.
8F\J	.	.	8F\J	.	8b-\J	.	.	.	.	.	.	16cc\LL	-mus	.	.
.	.	.	.	.	.	.	.	.	.	.	.	16dd\JJ	.	.	.
!	!	!	!	!	!LO:LB:g=original	!	!	!	!	!	!	!	!	!	!
=110	=110	=110	=110	=110	=110	=110	=110	=110	=110	=110	=110	=110	=110	=110	=110
8G\L	6	.	8G\L	.	8b-\L	.	(32ee-\LLL	.	2ryy	2ryy	2ryy	8.ee-\	Do-	2ryy	2ryy
.	.	.	.	.	.	.	32ff\	.	.	.	.	.	.	.	.
.	.	.	.	.	.	.	32gg\	.	.	.	.	.	.	.	.
.	.	.	.	.	.	.	32ff\JJJ)	.	.	.	.	.	.	.	.
8G\	.	.	8G\	.	8b-\	.	4.ee-\	.	.	.	.	.	.	.	.
.	.	.	.	.	.	.	.	.	.	.	.	16e-/	-mi-	.	.
8G\	.	.	8G\	.	8b-\	.	.	.	.	.	.	4e-/	-ni	.	.
8F\J	.	.	8F\J	.	8b-\J	.	.	.	.	.	.	.	.	.	.
=111	=111	=111	=111	=111	=111	=111	=111	=111	=111	=111	=111	=111	=111	=111	=111
8En\L	6	.	8En\L	.	8cc\L	.	(32gg\LLL	.	2ryy	2ryy	2ryy	4cc\	in	2ryy	2ryy
.	.	.	.	.	.	.	32aan\	.	.	.	.	.	.	.	.
.	.	.	.	.	.	.	32bb-\	.	.	.	.	.	.	.	.
.	.	.	.	.	.	.	32aa\JJJ)	.	.	.	.	.	.	.	.
8E\	.	.	8E\	.	8cc\	.	4.gg\	.	.	.	.	.	.	.	.
8E\	5	.	8E\	.	8cc\	.	.	.	.	.	.	16b-\	me-	.	.
.	.	.	.	.	.	.	.	.	.	.	.	16b-\	-di-	.	.
8E\J	.	.	8E\J	.	8cc\J	.	.	.	.	.	.	8b-\	-o	.	.
!	!	!	!	!	!	!	!	!	!	!	!	!LO:LB:g=original	!	!	!
=112	=112	=112	=112	=112	=112	=112	=112	=112	=112	=112	=112	=112	=112	=112	=112
8F\L	.	.	8F\L	.	8cc\L	.	(32aa\LLL	.	2ryy	2ryy	2ryy	8.an\L	tu-	2ryy	2ryy
.	.	.	.	.	.	.	32bb-\	.	.	.	.	.	.	.	.
.	.	.	.	.	.	.	32ccc\	.	.	.	.	.	.	.	.
.	.	.	.	.	.	.	32bb-\JJJ)	.	.	.	.	.	.	.	.
8F\	.	.	8F\	.	8cc\	.	4.aa\	.	.	.	.	.	.	.	.
.	.	.	.	.	.	.	.	.	.	.	.	16b-\Jk	.	.	.
8F\	.	.	8F\	.	8cc\	.	.	.	.	.	.	4cc\	-i	.	.
8F\J	.	.	8F\J	.	8cc\J	.	.	.	.	.	.	.	.	.	.
=113	=113	=113	=113	=113	=113	=113	=113	=113	=113	=113	=113	=113	=113	=113	=113
*	*	*	*	*	*	*	*	*	*	*	*	*	*ij	*	*
8G\L	n6r 4	.	8G\L	.	8cc\L	.	(32een\LLL	.	2ryy	2ryy	2ryy	4.cc\	tu-	2ryy	2ryy
.	.	.	.	.	.	.	32ff\	.	.	.	.	.	.	.	.
.	.	.	.	.	.	.	32gg\	.	.	.	.	.	.	.	.
.	.	.	.	.	.	.	32ff\JJJ)	.	.	.	.	.	.	.	.
8G\	.	.	8G\	.	8cc\	.	4.een\	.	.	.	.	.	.	.	.
8G\	.	.	8G\	.	8cc\	.	.	.	.	.	.	.	.	.	.
8G\J	.	.	8G\J	.	8cc\J	.	.	.	.	.	.	16dd\	-i	.	.
*	*	*	*	*	*	*	*	*	*	*	*	*	*Xij	*	*
.	.	.	.	.	.	.	.	.	.	.	.	16een\	Je-	.	.
=114	=114	=114	=114	=114	=114	=114	=114	=114	=114	=114	=114	=114	=114	=114	=114
8A\L	6	.	8A\L	.	8cc\L	.	(32ff\LLL	.	2ryy	2ryy	2ryy	8.ff\	-ru-	2ryy	2ryy
.	.	.	.	.	.	.	32gg\	.	.	.	.	.	.	.	.
.	.	.	.	.	.	.	32aa\	.	.	.	.	.	.	.	.
.	.	.	.	.	.	.	32gg\JJJ)	.	.	.	.	.	.	.	.
8A\	.	.	8A\	.	8cc\	.	4.ff\	.	.	.	.	.	.	.	.
.	.	.	.	.	.	.	.	.	.	.	.	16f/	-sa-	.	.
8A\	.	.	8A\	.	8cc\	.	.	.	.	.	.	4f/	-lem	.	.
8G\J	.	.	8G\J	.	8cc\J	.	.	.	.	.	.	.	.	.	.
!	!	!	!LO:LB:g=original	!	!	!	!	!	!	!	!	!	!	!	!
=115	=115	=115	=115	=115	=115	=115	=115	=115	=115	=115	=115	=115	=115	=115	=115
8F\L	.	.	8F\L	.	(32cc\LLL	.	(32aa\LLL	.	2ryy	2ryy	2ryy	8.f/	glo-	2ryy	2ryy
.	.	.	.	.	32dd\	.	32bb-\	.	.	.	.	.	.	.	.
.	.	.	.	.	32ee-\	.	32ccc\	.	.	.	.	.	.	.	.
.	.	.	.	.	32dd\)JJ	.	32bb-\JJ)	.	.	.	.	.	.	.	.
8F\	.	.	8F\	.	(8cc'\	.	(8aa'\J	.	.	.	.	.	.	.	.
.	.	.	.	.	.	.	.	.	.	.	.	16f/	-ri-	.	.
8F\	-7r	.	8F\	.	8cc'\	.	8aa'\L	.	.	.	.	4ee-X\	-a	.	.
8F\J	.	.	8F\J	.	8cc'\J)	.	8aa'\J)	.	.	.	.	.	.	.	.
=116	=116	=116	=116	=116	=116	=116	=116	=116	=116	=116	=116	=116	=116	=116	=116
8F\L	6 4	.	8F\L	.	(32dd\LLL	.	(32bb-\LLL	.	2ryy	2ryy	2ryy	4dd\	Pa-	2ryy	2ryy
.	.	.	.	.	32ee-\	.	32ccc\	.	.	.	.	.	.	.	.
.	.	.	.	.	32ff\	.	32ddd\	.	.	.	.	.	.	.	.
.	.	.	.	.	32ee-\JJ)	.	32ccc\JJ)	.	.	.	.	.	.	.	.
!LO:TX:b:i:t=Volti Subito	!	!	!	!	!	!	!	!	!	!	!	!	!	!	!
8F\	.	.	8F\	.	(8dd'\	.	(8bb-'\J	.	.	.	.	.	.	.	.
8F\	.	.	8F\	.	8dd'\	.	8bb-'\L	.	.	.	.	4dd\	-tri	.	.
8F\J	.	.	8F\J	.	8dd'\J)	.	8bb-'\J)	.	.	.	.	.	.	.	.
!LO:PB:g=original	!	!	!	!	!	!	!LO:LB:g=original	!	!	!	!	!	!	!	!
=117	=117	=117	=117	=117	=117	=117	=117	=117	=117	=117	=117	=117	=117	=117	=117
8F\L	-6 4	.	8F\L	.	(32dd-X\LLL	.	(32bb-\LLL	.	2ryy	2ryy	2ryy	8.f/	glo-	2ryy	2ryy
.	.	.	.	.	32ee-\	.	32ccc\	.	.	.	.	.	.	.	.
.	.	.	.	.	32ff\	.	32ddd-X\	.	.	.	.	.	.	.	.
.	.	.	.	.	32ee-\JJ)	.	32ccc\JJ)	.	.	.	.	.	.	.	.
8F\	.	.	8F\	.	(8dd-X'\	.	(8bb-'\J	.	.	.	.	.	.	.	.
.	.	.	.	.	.	.	.	.	.	.	.	16f/	-ri-	.	.
8F\	.	.	8F\	.	8dd-'\	.	8bb-'\L	.	.	.	.	4dd-X\	-a	.	.
8F\J	.	.	8F\J	.	8dd-'\J)	.	8bb-'\J)	.	.	.	.	.	.	.	.
=118	=118	=118	=118	=118	=118	=118	=118	=118	=118	=118	=118	=118	=118	=118	=118
8F\L	5 3	.	8F\L	.	(32cc\LLL	.	(32aa\LLL	.	2ryy	2ryy	2ryy	8.cc\	Fi-	2ryy	2ryy
.	.	.	.	.	32dd-X\	.	32bb-\	.	.	.	.	.	.	.	.
.	.	.	.	.	32ee-\	.	32ccc\	.	.	.	.	.	.	.	.
.	.	.	.	.	32dd-\JJ)	.	32bb-\JJ)	.	.	.	.	.	.	.	.
8F\	.	.	8F\	.	(8cc'\	.	(8aa'\J	.	.	.	.	.	.	.	.
.	.	.	.	.	.	.	.	.	.	.	.	16bn\	-li-	.	.
.	.	.	.	.	.	.	.	.	.	.	.	8qqb/	.	.	.
8F\	.	.	8F\	.	8cc'\	.	8aa'\L	.	.	.	.	4cc\	-o	.	.
8F\J	.	.	8F\J	.	8cc'\J)	.	8aa'\J)	.	.	.	.	.	.	.	.
=119	=119	=119	=119	=119	=119	=119	=119	=119	=119	=119	=119	=119	=119	=119	=119
.	.	.	.	.	.	.	8qqff/	.	.	.	.	.	.	.	.
8r	.	.	8r	.	8r	.	2ee-\	.	2ryy	2ryy	2ryy	4.ee-\	et	2ryy	2ryy
8c\L	6	.	8c\L	.	8a\L	.	.	.	.	.	.	.	.	.	.
8A\	.	.	8A\	.	8cc\	.	.	.	.	.	.	.	.	.	.
8F\J	.	.	8F\J	.	8a\J	.	.	.	.	.	.	8ee-\	Spi-	.	.
=120	=120	=120	=120	=120	=120	=120	=120	=120	=120	=120	=120	=120	=120	=120	=120
8B-\L	.	.	8B-\L	.	8b-\L	.	16ddn\LL	.	2ryy	2ryy	2ryy	8.ddn\	-ri-	2ryy	2ryy
.	.	.	.	.	.	.	16ff\J	.	.	.	.	.	.	.	.
8F\	.	.	8F\	.	8dd\J	.	8ffT\J	.	.	.	.	.	.	.	.
.	.	.	.	.	.	.	.	.	.	.	.	16dd\	-tu-	.	.
8A\	6	.	8A\	.	8f/L	.	16cc\LL	.	.	.	.	4cc\	-i	.	.
.	.	.	.	.	.	.	16ff\J	.	.	.	.	.	.	.	.
8F\J	.	.	8F\J	.	8a/J	.	8ffT\J	.	.	.	.	.	.	.	.
=121	=121	=121	=121	=121	=121	=121	=121	=121	=121	=121	=121	=121	=121	=121	=121
.	.	.	.	.	.	.	16qqa\L	.	.	.	.	.	.	.	.
.	.	.	.	.	.	.	16qqcc\J	.	.	.	.	8qqcc/	.	.	.
8G\L	.	.	8G\L	.	8d/	.	2b-/	.	2ryy	2ryy	2ryy	2b-\	San-	2ryy	2ryy
8F\J	.	.	8F\	.	4g/	.	.	.	.	.	.	.	.	.	.
8En\L	6 5	.	8En\	.	.	.	.	.	.	.	.	.	.	.	.
8C\J	.	.	8C\J	.	8en/	.	.	.	.	.	.	.	.	.	.
!	!	!	!	!	!	!	!	!	!	!	!	!LO:LB:g=original	!	!	!
=122	=122	=122	=122	=122	=122	=122	=122	=122	=122	=122	=122	=122	=122	=122	=122
*M3/8	*	*	*M3/8	*	*M3/8	*	*M3/8	*	*M3/8	*M3/8	*M3/8	*M3/8	*	*M3/8	*M3/8
!	!	!	!	!	!	!	!LO:TX:t=P:problem:mixed beam	!	!	!	!	!	!	!	!
!LO:TX:b:t=aſsai.	!	!	!	!	!LO:TX:b:t=aſsai.	!	!LO:TX:b:t=aſsai.	!	!	!	!	!	!	!	!
4F\	.	.	4F\	.	4f/	.	8a/L	.	4.ryy	4.ryy	4.ryy	8a\	-cto:	4.ryy	4.ryy
.	.	.	.	.	.	.	8ff\	.	.	.	.	8ff\	si-	.	.
8r	.	.	8r	.	8r	.	8ee-\J	.	.	.	.	8ee-\	-cut	.	.
=123	=123	=123	=123	=123	=123	=123	=123	=123	=123	=123	=123	=123	=123	=123	=123
!	!	!	!	!	!LO:TX:t=1.	!	!	!	!	!	!	!	!	!	!
4BB-/	.	.	4BB-/	.	4.r	.	(8dd\L	.	4.ryy	4.ryy	4.ryy	(8dd\L	e-	4.ryy	4.ryy
.	.	.	.	.	.	.	8cc\)	.	.	.	.	8cc\J)	.	.	.
8r	.	.	8r	.	.	.	8b-\J|	.	.	.	.	8b-\	-rat	.	.
=124	=124	=124	=124	=124	=124	=124	=124	=124	=124	=124	=124	=124	=124	=124	=124
!LO:TX:t=2.	!	!	!LO:TX:t=2.	!	!	!	!	!	!	!	!	!	!	!	!
2.r	.	.	2.r	.	8r	.	4a/	.	4.ryy	4.ryy	4.ryy	4a\	in	4.ryy	4.ryy
.	.	.	.	.	8f/L	.	.	.	.	.	.	.	.	.	.
.	.	.	.	.	8e-/J	.	8a/	.	.	.	.	8a\	prin-	.	.
!	!	!	!	!	!LO:LB:g=original	!	!	!	!	!	!	!	!	!	!
=125	=125	=125	=125	=125	=125	=125	=125	=125	=125	=125	=125	=125	=125	=125	=125
.	.	.	.	.	8d/L	.	(16b-\LL	.	4.ryy	4.ryy	4.ryy	(16b-\LL	-ci-	4.ryy	4.ryy
.	.	.	.	.	.	.	16a\	.	.	.	.	16a\	.	.	.
.	.	.	.	.	8c/	.	16b-\	.	.	.	.	16b-\JJ)	.	.	.
.	.	.	.	.	.	.	16cc\J)	.	.	.	.	16cc\	-pi-	.	.
.	.	.	.	.	8B-/J	.	8dd\J|	.	.	.	.	8dd\	-o	.	.
=126	=126	=126	=126	=126	=126	=126	=126	=126	=126	=126	=126	=126	=126	=126	=126
8r	.	.	8r	.	4A/	.	4cc\	.	4.ryy	4.ryy	4.ryy	4cc\	nunc	4.ryy	4.ryy
8F\L	.	.	8F\L	.	.	.	.	.	.	.	.	.	.	.	.
8E-\J	.	.	8E-\J	.	8a/	.	8cc\	.	.	.	.	8cc\	et	.	.
=127	=127	=127	=127	=127	=127	=127	=127	=127	=127	=127	=127	=127	=127	=127	=127
8D/L	6	.	8D/L	.	(16b-\LL	.	(16dd\LL	.	4.ryy	4.ryy	4.ryy	(16dd\LL	sem-	4.ryy	4.ryy
.	.	.	.	.	16a\	.	16cc\	.	.	.	.	16cc\	.	.	.
8C/	.	.	8C/	.	16b-\	.	16dd\	.	.	.	.	16dd\	.	.	.
.	.	.	.	.	16cc\	.	16ee-\J)	.	.	.	.	16ee-\JJ)	.	.	.
8BB-/J	.	.	8BB-/J	.	16dd\)	.	8ff\J|	.	.	.	.	8ff\	-per	.	.
.	.	.	.	.	16ff\JJ|	.	.	.	.	.	.	.	.	.	.
=128	=128	=128	=128	=128	=128	=128	=128	=128	=128	=128	=128	=128	=128	=128	=128
4AA/	7 6	.	4AA/	.	(8ff\L	.	4gg\	.	4.ryy	4.ryy	4.ryy	4gg\	et	4.ryy	4.ryy
.	.	.	.	.	16ee-\L	.	.	.	.	.	.	.	.	.	.
.	.	.	.	.	16dd\J)	.	.	.	.	.	.	.	.	.	.
8AA/	5	.	8AA/	.	8ee-\J|	.	8gg\	.	.	.	.	8gg\	in	.	.
=129	=129	=129	=129	=129	=129	=129	=129	=129	=129	=129	=129	=129	=129	=129	=129
.	.	.	.	.	.	.	8qqgg/	.	.	.	.	.	.	.	.
16BB-/LL	.	.	16BB-/LL	.	8.dd\L	.	8.ff\L	.	4.ryy	4.ryy	4.ryy	8.ff\	sae-	4.ryy	4.ryy
16AA/	.	.	16AA/	.	.	.	.	.	.	.	.	.	.	.	.
16BB-/	.	.	16BB-/	.	.	.	.	.	.	.	.	.	.	.	.
16C/J	.	.	16C/J	.	16cc\k	.	16ee-\k	.	.	.	.	16ee-\	-cu-	.	.
8D/J	6	.	8D/J	.	8b-\J	.	8dd\J	.	.	.	.	8dd\	-la	.	.
=130	=130	=130	=130	=130	=130	=130	=130	=130	=130	=130	=130	=130	=130	=130	=130
8E-\L	.	.	8E-\L	.	[4.b-\	.	16gg\LL	.	4.ryy	4.ryy	4.ryy	(8gg\L	sae-	4.ryy	4.ryy
.	.	.	.	.	.	.	16bb-\	.	.	.	.	.	.	.	.
8D\	6	.	8D\	.	.	.	16ff\	.	.	.	.	8ff\J)	.	.	.
.	.	.	.	.	.	.	16bb-\	.	.	.	.	.	.	.	.
8C\J	7	.	8C\J	.	.	.	16ee-\	.	.	.	.	8ee-\	-cu-	.	.
.	.	.	.	.	.	.	16bb-\JJ	.	.	.	.	.	.	.	.
=131	=131	=131	=131	=131	=131	=131	=131	=131	=131	=131	=131	=131	=131	=131	=131
8BB-/L	8	.	8BB-/L	.	16b-\LL]	.	16dd\LL	.	4.ryy	4.ryy	4.ryy	8dd\	-lo-	4.ryy	4.ryy
.	.	.	.	.	16dd\JJ	.	16bb-\	.	.	.	.	.	.	.	.
8AA/	6	.	8AA/	.	8ff\L	.	16cc\	.	.	.	.	(8cc\L	.	.	.
.	.	.	.	.	.	.	16bb-\	.	.	.	.	.	.	.	.
8GG/J	n6r	.	8GG/J	.	8een\J	.	16b-\	.	.	.	.	8b-\J)	.	.	.
.	.	.	.	.	.	.	16bb-\JJ	.	.	.	.	.	.	.	.
!LO:LB:g=original	!	!	!	!	!	!	!	!	!	!	!	!LO:LB:g=original	!	!	!
=132	=132	=132	=132	=132	=132	=132	=132	=132	=132	=132	=132	=132	=132	=132	=132
4FF/	.	.	4FF/	.	8ff\L	.	8a/L	.	4.ryy	4.ryy	4.ryy	8a\	-rum	4.ryy	4.ryy
.	.	.	.	.	8aa\	.	8ccc\	.	.	.	.	8cc\	si-	.	.
8C/	.7 n	.	8C/	.	8gg\J	.	8bb-\J	.	.	.	.	8b-\	-cut	.	.
!	!	!	!	!	!	!	!LO:LB:g=original	!	!	!	!	!	!	!	!
=133	=133	=133	=133	=133	=133	=133	=133	=133	=133	=133	=133	=133	=133	=133	=133
4F\	.	.	4F\	.	4ff\	.	(8aa\L	.	4.ryy	4.ryy	4.ryy	(8a\L	e-	4.ryy	4.ryy
.	.	.	.	.	.	.	8gg\)	.	.	.	.	8g\J)	.	.	.
8r	.	.	8r	.	8r	.	8ff\J|	.	.	.	.	8f/	-rat	.	.
=134	=134	=134	=134	=134	=134	=134	=134	=134	=134	=134	=134	=134	=134	=134	=134
!LO:TX:t=2.	!	!	!LO:TX:t=2.	!	!	!	!	!	!	!	!	!	!	!	!
2.r	.	.	2.r	.	8r	.	4een\	.	4.ryy	4.ryy	4.ryy	4en/	in	4.ryy	4.ryy
.	.	.	.	.	8cc\L	.	.	.	.	.	.	.	.	.	.
.	.	.	.	.	8b-\J	.	8ee\	.	.	.	.	8e/	prin-	.	.
=135	=135	=135	=135	=135	=135	=135	=135	=135	=135	=135	=135	=135	=135	=135	=135
.	.	.	.	.	8a/L	.	(16ff\LL	.	4.ryy	4.ryy	4.ryy	(16f/LL	-ci-	4.ryy	4.ryy
.	.	.	.	.	.	.	16een\	.	.	.	.	16en/	.	.	.
.	.	.	.	.	8g/	.	16ff\	.	.	.	.	16f/JJ)	.	.	.
.	.	.	.	.	.	.	16gg\J)	.	.	.	.	16g/	-pi-	.	.
.	.	.	.	.	8f/J	.	8aa\J|	.	.	.	.	8a\	-o	.	.
!	!	!	!LO:LB:g=original	!	!	!	!	!	!	!	!	!	!	!	!
=136	=136	=136	=136	=136	=136	=136	=136	=136	=136	=136	=136	=136	=136	=136	=136
8r	.	.	8r	.	4en/	.	4gg\	.	4.ryy	4.ryy	4.ryy	4g/	nunc	4.ryy	4.ryy
8c\L	n	.	8c\L	.	.	.	.	.	.	.	.	.	.	.	.
8B-\J	.	.	8B-\J	.	8een\	.	8gg\	.	.	.	.	8g/	et	.	.
=137	=137	=137	=137	=137	=137	=137	=137	=137	=137	=137	=137	=137	=137	=137	=137
8A\L	6	.	8A\L	.	(16ff\LL	.	(16aa\LL	.	4.ryy	4.ryy	4.ryy	(16a\LL	sem-	4.ryy	4.ryy
.	.	.	.	.	16een\	.	16gg\	.	.	.	.	16g\	.	.	.
8G\	.	.	8G\	.	16ff\	.	16aa\	.	.	.	.	16a\	.	.	.
.	.	.	.	.	16gg\)	.	16bb-\J)	.	.	.	.	16b-\JJ)	.	.	.
8F\J	.	.	8F\J	.	(16aa\|	.	8ccc\J|	.	.	.	.	8cc\	-per	.	.
.	.	.	.	.	16ccc\JJ)	.	.	.	.	.	.	.	.	.	.
=138	=138	=138	=138	=138	=138	=138	=138	=138	=138	=138	=138	=138	=138	=138	=138
4En\	7 6	.	4En\	.	(8ccc\L	.	4ddd\	.	4.ryy	4.ryy	4.ryy	4dd\	et	4.ryy	4.ryy
.	.	.	.	.	16bb-\L	.	.	.	.	.	.	.	.	.	.
.	.	.	.	.	16aa\J)	.	.	.	.	.	.	.	.	.	.
8E\	5	.	8E\	.	8bb-\J|	.	8ddd\	.	.	.	.	8dd\	in	.	.
=139	=139	=139	=139	=139	=139	=139	=139	=139	=139	=139	=139	=139	=139	=139	=139
16F\LL	.	.	16F\LL	.	8.aa\L	.	8.ccc\L	.	4.ryy	4.ryy	4.ryy	8.cc\	sae-	4.ryy	4.ryy
16En\	.	.	16En\	.	.	.	.	.	.	.	.	.	.	.	.
16F\	.	.	16F\	.	.	.	.	.	.	.	.	.	.	.	.
16G\J	.	.	16G\J	.	16gg\k	.	16bb-\k	.	.	.	.	16b-\	-cu-	.	.
8A\J	6	.	8A\J	.	[8ff\J	.	[8aa\J	.	.	.	.	8a\	-la	.	.
=140	=140	=140	=140	=140	=140	=140	=140	=140	=140	=140	=140	=140	=140	=140	=140
!LO:TX:t=P:problem:mixed beam	!	!	!LO:TX:t=P:problem:mixed beam	!	!	!	!	!	!	!	!	!	!	!	!
8B-\L	7	.	8B-\L	.	16ff\LL]	.	16aa\LL]	.	4.ryy	4.ryy	4.ryy	16dd\	sae-	4.ryy	4.ryy
.	.	.	.	.	16dd\JJ	.	16gg\JJ	.	.	.	.	16gg\	-cu-	.	.
8c\	.	.	8c\	.	4een\t	.	4ggT\	.	.	.	.	4eent\	-lo-	.	.
8C/J	.	.	8C/J	.	.	.	.	.	.	.	.	.	.	.	.
=141	=141	=141	=141	=141	=141	=141	=141	=141	=141	=141	=141	=141	=141	=141	=141
4F\	.	.	4F\	.	4ff\	.	8ff\L	.	4.ryy	4.ryy	4.ryy	8ff\	-ru(m)	4.ryy	4.ryy
.	.	.	.	.	.	.	8ff\	.	.	.	.	8ff\	a-	.	.
.	.	.	.	.	.	.	8qqee-/	.	.	.	.	.	.	.	.
8r	.	.	8r	.	8r	.	8dd\J	.	.	.	.	8dd\	-men	.	.
!	!	!	!	!	!	!	!	!	!	!	!	!LO:LB:g=original	!	!	!
=142	=142	=142	=142	=142	=142	=142	=142	=142	=142	=142	=142	=142	=142	=142	=142
*	*	*	*	*	*	*	*	*	*	*	*	*	*ij	*	*
.	.	.	.	.	.	.	8qqcc/	.	.	.	.	.	.	.	.
8G\L	n	.	8G\L	.	8r	.	4bn\	.	4.ryy	4.ryy	4.ryy	4bn\	a-	4.ryy	4.ryy
8F\	n4r	.	8F\	.	8gg\L	.	.	.	.	.	.	.	.	.	.
8E-\J	6	.	8E-\J	.	8g/J	.	8cc\	.	.	.	.	8cc\	-men	.	.
*	*	*	*	*	*	*	*	*	*	*	*	*	*Xij	*	*
=143	=143	=143	=143	=143	=143	=143	=143	=143	=143	=143	=143	=143	=143	=143	=143
!LO:TX:t=1	!	!	!	!	!LO:TX:t=1.	!	!	!	!	!	!	!	!	!	!
4.r	.	.	4.r	.	4.r	.	8r	.	4.ryy	4.ryy	4.ryy	8r	.	4.ryy	4.ryy
.	.	.	.	.	.	.	8ee-\L	.	.	.	.	8ee-\	a-	.	.
.	.	.	.	.	.	.	8qqdd/	.	.	.	.	.	.	.	.
.	.	.	.	.	.	.	8cc\J	.	.	.	.	8cc\	-men	.	.
!	!	!	!	!	!LO:LB:g=original	!	!	!	!	!	!	!	!	!	!
=144	=144	=144	=144	=144	=144	=144	=144	=144	=144	=144	=144	=144	=144	=144	=144
*	*	*	*	*	*	*	*	*	*	*	*	*	*ij	*	*
.	.	.	.	.	.	.	8qqb-/	.	.	.	.	8qqb-/	.	.	.
8F\L	.	.	8F\L	.	8r	.	4a/	.	4.ryy	4.ryy	4.ryy	4a\	a-	4.ryy	4.ryy
8E-\	2	.	8E-\	.	8ff\L	.	.	.	.	.	.	.	.	.	.
8D\J	6	.	8D\J	.	8f/J	.	8b-\	.	.	.	.	8b-X\	-men	.	.
*	*	*	*	*	*	*	*	*	*	*	*	*	*Xij	*	*
=145	=145	=145	=145	=145	=145	=145	=145	=145	=145	=145	=145	=145	=145	=145	=145
!LO:TX:t=1	!	!	!LO:TX:b:t=Segz Cito	!	!LO:TX:t=1.	!	!LO:TX:t=1.	!	!	!	!	!	!	!	!
4.r	.	.	4.r	.	4.r	.	4.r	.	4.ryy	4.ryy	4.ryy	(16b-\LL	a-	4.ryy	4.ryy
.	.	.	.	.	.	.	.	.	.	.	.	16a\	.	.	.
.	.	.	.	.	.	.	.	.	.	.	.	16b-\	.	.	.
.	.	.	.	.	.	.	.	.	.	.	.	16cc\	.	.	.
.	.	.	.	.	.	.	.	.	.	.	.	16dd\)	.	.	.
.	.	.	.	.	.	.	.	.	.	.	.	16ee-\JJ	.	.	.
!	!	!	!LO:PB:g=original	!	!	!	!	!	!	!	!	!	!	!	!
=146	=146	=146	=146	=146	=146	=146	=146	=146	=146	=146	=146	=146	=146	=146	=146
8B-\L	.	.	8B-\L	.	8dd\L	.	16dd\LL	.	4.ryy	4.ryy	4.ryy	[4.ff\	.	4.ryy	4.ryy
.	.	.	.	.	.	.	16ff\	.	.	.	.	.	.	.	.
8A\	6	.	8A\	.	8cc\	.	16cc\	.	.	.	.	.	.	.	.
.	.	.	.	.	.	.	16ff\	.	.	.	.	.	.	.	.
8G\J	7	.	8G\J	.	8b-\J	.	16b-\	.	.	.	.	.	.	.	.
.	.	.	.	.	.	.	16ff\JJ	.	.	.	.	.	.	.	.
=147	=147	=147	=147	=147	=147	=147	=147	=147	=147	=147	=147	=147	=147	=147	=147
8F\L	8	.	8F\L	.	8a\L	.	16a\LL	.	4.ryy	4.ryy	4.ryy	4.ff\_	.	4.ryy	4.ryy
.	.	.	.	.	.	.	16ff\	.	.	.	.	.	.	.	.
8G\	7	.	8G\	.	8b-\	.	16b-\	.	.	.	.	.	.	.	.
.	.	.	.	.	.	.	16ff\	.	.	.	.	.	.	.	.
8A\J	6	.	8A\J	.	8cc\J	.	16cc\	.	.	.	.	.	.	.	.
.	.	.	.	.	.	.	16ff\JJ	.	.	.	.	.	.	.	.
=148	=148	=148	=148	=148	=148	=148	=148	=148	=148	=148	=148	=148	=148	=148	=148
8B-\L	5	.	8B-\L	.	8dd\L	.	16dd\LL	.	4.ryy	4.ryy	4.ryy	4.ff\]	.	4.ryy	4.ryy
.	.	.	.	.	.	.	16ff\	.	.	.	.	.	.	.	.
8A\	6	.	8A\	.	8cc\	.	16cc\	.	.	.	.	.	.	.	.
.	.	.	.	.	.	.	16ff\	.	.	.	.	.	.	.	.
8G\J	7	.	8G\J	.	8b-\J	.	16b-\	.	.	.	.	.	.	.	.
.	.	.	.	.	.	.	16ff\JJ	.	.	.	.	.	.	.	.
=149	=149	=149	=149	=149	=149	=149	=149	=149	=149	=149	=149	=149	=149	=149	=149
4F\	8	.	4F\	.	4a/	.	4f/	.	4.ryy	4.ryy	4.ryy	8ff\	-men	4.ryy	4.ryy
.	.	.	.	.	.	.	.	.	.	.	.	8bb-\	a-	.	.
8r	.	.	8r	.	8r	.	8r	.	.	.	.	8bb-\	-men	.	.
!LO:LB:g=original	!	!	!	!	!	!	!	!	!	!	!	!	!	!	!
=150	=150	=150	=150	=150	=150	=150	=150	=150	=150	=150	=150	=150	=150	=150	=150
8E-\L	.	.	8E-\L	.	8gg\L	.	16gg\LL	.	4.ryy	4.ryy	4.ryy	[4.bb-\	a-	4.ryy	4.ryy
.	.	.	.	.	.	.	16bb-\	.	.	.	.	.	.	.	.
8D\	6	.	8D\	.	8ff\	.	16ff\	.	.	.	.	.	.	.	.
.	.	.	.	.	.	.	16bb-\	.	.	.	.	.	.	.	.
8C\J	3	.	8C\J	.	8ee-\J	.	16ee-\	.	.	.	.	.	.	.	.
.	.	.	.	.	.	.	16bb-\JJ	.	.	.	.	.	.	.	.
!	!	!	!	!	!	!	!LO:LB:g=original	!	!	!	!	!	!	!	!
=151	=151	=151	=151	=151	=151	=151	=151	=151	=151	=151	=151	=151	=151	=151	=151
8BB-/L	8	.	8BB-/L	.	8dd\L	.	16dd\LL	.	4.ryy	4.ryy	4.ryy	4.bb-\_	.	4.ryy	4.ryy
.	.	.	.	.	.	.	16bb-\	.	.	.	.	.	.	.	.
8C/	7	.	8C/	.	8ee-\	.	16ee-\	.	.	.	.	.	.	.	.
.	.	.	.	.	.	.	16bb-\	.	.	.	.	.	.	.	.
8D/J	6	.	8D/J	.	8ff\J	.	16ff\	.	.	.	.	.	.	.	.
.	.	.	.	.	.	.	16bb-\JJ	.	.	.	.	.	.	.	.
=152	=152	=152	=152	=152	=152	=152	=152	=152	=152	=152	=152	=152	=152	=152	=152
8E-\L	4	.	8E-\L	.	8gg\L	.	16gg\LL	.	4.ryy	4.ryy	4.ryy	4.bb-\]	.	4.ryy	4.ryy
.	.	.	.	.	.	.	16bb-\	.	.	.	.	.	.	.	.
8D\	6	.	8D\	.	8ff\	.	16ff\	.	.	.	.	.	.	.	.
.	.	.	.	.	.	.	16bb-\	.	.	.	.	.	.	.	.
8C\J	7	.	8C\J	.	8ee-\J	.	16ee-\	.	.	.	.	.	.	.	.
.	.	.	.	.	.	.	16bb-\JJ	.	.	.	.	.	.	.	.
=153	=153	=153	=153	=153	=153	=153	=153	=153	=153	=153	=153	=153	=153	=153	=153
8BB-/L	.	.	8BB-/L	.	8dd\L	.	4b-/	.	4.ryy	4.ryy	4.ryy	4bb-\	-men	4.ryy	4.ryy
8C/	7	.	8C/	.	8cc\	.	.	.	.	.	.	.	.	.	.
8D/J	6	.	8D/J	.	8b-\J	.	8ff\	.	.	.	.	8ff\	a-	.	.
=154	=154	=154	=154	=154	=154	=154	=154	=154	=154	=154	=154	=154	=154	=154	=154
8r	.	.	8r	.	8r	.	(8ff#X\L	.	4.ryy	4.ryy	4.ryy	(8ff#X\L	-men	4.ryy	4.ryy
8E-\L	.	.	8E-\L	.	8b-\L	.	8gg\)	.	.	.	.	8gg\J)	.	.	.
8F\J	7	.	8F\J	.	8ee-\J	.	8a\J|	.	.	.	.	8a\	a-	.	.
!	!	!	!	!	!	!	!	!	!	!	!	!LO:LB:g=original	!	!	!
=155	=155	=155	=155	=155	=155	=155	=155	=155	=155	=155	=155	=155	=155	=155	=155
.	.	.	.	.	8qqee-/	.	.	.	.	.	.	.	.	.	.
4G\	5	.	4G\	.	4dd\	.	(8a\L	.	4.ryy	4.ryy	4.ryy	(8a\L	-men	4.ryy	4.ryy
.	.	.	.	.	.	.	8b-\)	.	.	.	.	8b-\J)	.	.	.
8A\	6 5	.	8A\	.	8cc\	.	8ee-\J|	.	.	.	.	8ee-\	a-	.	.
=156	=156	=156	=156	=156	=156	=156	=156	=156	=156	=156	=156	=156	=156	=156	=156
!	!	!	!	!	!	!	!LO:TUP:a	!	!	!	!	!	!	!	!
!	!	!	!	!	!	!	!LO:TX:t=P:problem:klamra łukowa	!	!	!	!	!LO:TX:t=P:problem:klamra łukowa	!	!	!
8B-\L	.	.	8B-\L	.	8b-/L	.	24dd\LL	.	4.ryy	4.ryy	4.ryy	24dd\LL	.	4.ryy	4.ryy
.	.	.	.	.	.	.	24cc\	.	.	.	.	24cc\	.	.	.
.	.	.	.	.	.	.	24b-\JJ	.	.	.	.	24b-\JJ	.	.	.
8F\	.	.	8F\	.	8a/	.	4ccT\	.	.	.	.	4ccT\	.	.	.
8E-\J	6	.	8E-\J	.	8g/J	.	.	.	.	.	.	.	.	.	.
=157	=157	=157	=157	=157	=157	=157	=157	=157	=157	=157	=157	=157	=157	=157	=157
.	.	.	.	.	.	.	8qqcc/	.	.	.	.	.	.	.	.
8D/L	6	.	8D/L	.	8f/L	.	4b-\	.	4.ryy	4.ryy	4.ryy	4b-\	-men	4.ryy	4.ryy
8C/	.	.	8C/	.	8e-/	.	.	.	.	.	.	.	.	.	.
8BB-/J	.	.	8BB-/J	.	8d/J	.	8ff\	.	.	.	.	8ff\	a-	.	.
=158	=158	=158	=158	=158	=158	=158	=158	=158	=158	=158	=158	=158	=158	=158	=158
8r	.	.	8r	.	8r	.	(8ff#X\L	.	4.ryy	4.ryy	4.ryy	(8ff#X\L	-men	4.ryy	4.ryy
8E-\L	.	.	8E-\L	.	8b-\L	.	8gg\)	.	.	.	.	8gg\J)	.	.	.
*	*	*	*	*	*	*	*	*	*	*	*	*	*ij	*	*
8F\J	7	.	8F\J	.	8ee-\J	.	8a\J|	.	.	.	.	8a\	a-	.	.
=159	=159	=159	=159	=159	=159	=159	=159	=159	=159	=159	=159	=159	=159	=159	=159
.	.	.	.	.	8qqee-/	.	.	.	.	.	.	.	.	.	.
4G\	5	.	4G\	.	4dd\	.	(8a\L	.	4.ryy	4.ryy	4.ryy	(8a\L	-men	4.ryy	4.ryy
*	*	*	*	*	*	*	*	*	*	*	*	*	*Xij	*	*
.	.	.	.	.	.	.	8b-\)	.	.	.	.	8b-\J)	.	.	.
8A\	6 5	.	8A\	.	8cc\	.	8ee-\J|	f	.	.	.	8ee-\	a-	.	.
=160	=160	=160	=160	=160	=160	=160	=160	=160	=160	=160	=160	=160	=160	=160	=160
!	!	!	!	!	!	!	!LO:TUP:a	!	!	!	!	!LO:TX:t=P:problem:klamra łukowa	!	!	!
!	!	!	!	!	!	!	!LO:TX:t=P:problem:klamra łukowa	!	!	!	!	!	!	!	!
8B-\L	.	.	8B-\L	.	8b-/L	.	24dd\LL	.	4.ryy	4.ryy	4.ryy	24dd\LL	.	4.ryy	4.ryy
.	.	.	.	.	.	.	24cc\	.	.	.	.	24cc\	.	.	.
.	.	.	.	.	.	.	24b-\JJ	.	.	.	.	24b-\JJ	.	.	.
8E-\|	6	.	8E-\|	.	8e-/|	.	8e-/L|	.	.	.	.	4ccT\	.	.	.
8F\J|	.	.	8F\J|	.	8f/J|	.	8f/J|	.	.	.	.	.	.	.	.
=161	=161	=161	=161	=161	=161	=161	=161	=161	=161	=161	=161	=161	=161	=161	=161
4BB-/	.	.	4BB-/	.	4B-/	.	4B-/	.	4.ryy	4.ryy	4.ryy	4b-\	-men.	4.ryy	4.ryy
8r	.	.	8r	.	8r	.	8r	.	.	.	.	8r	.	.	.
==	==	==	==	==	==	==	==	==	==	==	==	==	==	==	==
*-	*-	*-	*-	*-	*-	*-	*-	*-	*-	*-	*-	*-	*-	*-	*-
!!!system-decoration: [(g1)][(g2)][(g3)][(g4)]
!!!ENC: Arek Malec
!!!END: 2022-04-27
!!!EED: Andrzej Borzym
!!!EST: 2022-04-28
!!!RDF**dynam: p = "pian"
!!!RDF**dynam: f = "for"
!!!RDF**kern: > = above
!!!RDF**kern: < = below
!!!RDF**kern: | = vertical stroke
